P3
8 8
255
40 28 18 40 28 18 48 34 22 56 40 26 56 40 26 48 34 22 40 28 18 40 28 18
40 28 18 88 66 42 98 74 48 106 80 52 106 80 52 98 74 48 88 66 42 40 28 18
48 34 22 98 74 48 116 88 58 130 98 66 130 98 66 116 88 58 98 74 48 48 34 22
56 40 26 106 80 52 130 98 66 146 112 76 146 112 76 130 98 66 106 80 52 56 40 26
56 40 26 106 80 52 130 98 66 146 112 76 146 112 76 130 98 66 106 80 52 56 40 26
48 34 22 98 74 48 116 88 58 130 98 66 130 98 66 116 88 58 98 74 48 48 34 22
40 28 18 88 66 42 98 74 48 106 80 52 106 80 52 98 74 48 88 66 42 40 28 18
40 28 18 40 28 18 48 34 22 56 40 26 56 40 26 48 34 22 40 28 18 40 28 18
