P3
64 64
255
62 48 36 62 48 36 62 48 36 62 48 36 62 48 36 62 48 36 62 48 36 62 48 36 62 48 36 62 48 36 62 48 36 62 48 36 62 48 36 62 48 36 62 48 36 62 48 36 62 48 36 62 48 36 62 48 36 62 48 36 62 48 36 62 48 36 62 48 36 62 48 36 62 48 36 62 48 36 62 48 36 62 48 36 62 48 36 62 48 36 62 48 36 62 48 36 62 48 36 62 48 36 62 48 36 62 48 36 62 48 36 62 48 36 62 48 36 62 48 36 62 48 36 62 48 36 62 48 36 62 48 36 62 48 36 62 48 36 62 48 36 62 48 36 62 48 36 62 48 36 62 48 36 62 48 36 62 48 36 62 48 36 62 48 36 62 48 36 62 48 36 62 48 36 62 48 36 62 48 36 62 48 36 62 48 36 62 48 36 62 48 36
62 48 36 131 119 109 134 122 112 137 125 115 123 111 101 126 114 104 129 117 107 132 120 110 135 123 113 138 126 116 124 112 102 127 115 105 130 118 108 133 121 111 136 124 114 62 48 36 62 48 36 140 128 118 143 131 121 146 134 124 132 120 110 113 105 99 138 126 116 141 129 119 158 142 128 147 135 125 133 121 111 136 124 114 139 127 117 142 130 120 145 133 123 62 48 36 62 48 36 129 117 107 132 120 110 135 123 113 138 126 116 124 112 102 127 115 105 130 118 108 133 121 111 136 124 114 122 110 100 125 113 103 106 98 92 131 119 109 134 122 112 62 48 36 62 48 36 138 126 116 141 129 119 144 132 122 147 135 125 133 121 111 136 124 114 139 127 117 142 130 120 145 133 123 148 136 126 134 122 112 137 125 115 140 128 118 143 131 121 62 48 36
62 48 36 137 125 115 123 111 101 126 114 104 129 117 107 132 120 110 135 123 113 152 136 122 124 112 102 127 115 105 130 118 108 133 121 111 136 124 114 122 110 100 125 113 103 62 48 36 62 48 36 146 134 124 132 120 110 113 105 99 138 126 116 141 129 119 144 132 122 147 135 125 133 121 111 136 124 114 139 127 117 142 130 120 145 133 123 148 136 126 134 122 112 62 48 36 62 48 36 135 123 113 138 126 116 124 112 102 127 115 105 130 118 108 133 121 111 136 124 114 122 110 100 125 113 103 106 98 92 131 119 109 134 122 112 137 125 115 123 111 101 62 48 36 62 48 36 144 132 122 147 135 125 133 121 111 136 124 114 139 127 117 142 130 120 145 133 123 148 136 126 134 122 112 137 125 115 140 128 118 143 131 121 146 134 124 132 120 110 62 48 36
62 48 36 126 114 104 129 117 107 132 120 110 135 123 113 138 126 116 124 112 102 127 115 105 130 118 108 133 121 111 136 124 114 122 110 100 125 113 103 128 116 106 131 119 109 62 48 36 62 48 36 113 105 99 138 126 116 141 129 119 144 132 122 147 135 125 133 121 111 136 124 114 139 127 117 142 130 120 145 133 123 148 136 126 134 122 112 137 125 115 140 128 118 62 48 36 62 48 36 124 112 102 127 115 105 130 118 108 133 121 111 136 124 114 122 110 100 125 113 103 106 98 92 131 119 109 134 122 112 137 125 115 123 111 101 126 114 104 129 117 107 62 48 36 62 48 36 133 121 111 136 124 114 139 127 117 142 130 120 145 133 123 148 136 126 134 122 112 137 125 115 140 128 118 143 131 121 146 134 124 132 120 110 135 123 113 138 126 116 62 48 36
62 48 36 132 120 110 135 123 113 138 126 116 124 112 102 127 115 105 130 118 108 133 121 111 136 124 114 122 110 100 125 113 103 128 116 106 131 119 109 134 122 112 151 135 121 62 48 36 62 48 36 141 129 119 144 132 122 147 135 125 133 121 111 136 124 114 139 127 117 142 130 120 145 133 123 148 136 126 134 122 112 137 125 115 140 128 118 143 131 121 146 134 124 62 48 36 62 48 36 130 118 108 133 121 111 136 124 114 122 110 100 125 113 103 106 98 92 131 119 109 134 122 112 137 125 115 123 111 101 126 114 104 129 117 107 132 120 110 135 123 113 62 48 36 62 48 36 139 127 117 142 130 120 145 133 123 148 136 126 134 122 112 137 125 115 154 138 124 143 131 121 146 134 124 132 120 110 135 123 113 138 126 116 119 111 105 144 132 122 62 48 36
62 48 36 138 126 116 124 112 102 127 115 105 130 118 108 133 121 111 136 124 114 122 110 100 125 113 103 128 116 106 131 119 109 134 122 112 137 125 115 101 93 87 126 114 104 62 48 36 62 48 36 147 135 125 133 121 111 136 124 114 139 127 117 142 130 120 145 133 123 148 136 126 134 122 112 137 125 115 140 128 118 143 131 121 146 134 124 132 120 110 135 123 113 62 48 36 62 48 36 136 124 114 122 110 100 125 113 103 106 98 92 131 119 109 148 132 118 137 125 115 123 111 101 126 114 104 129 117 107 132 120 110 135 123 113 138 126 116 124 112 102 62 48 36 62 48 36 145 133 123 148 136 126 134 122 112 137 125 115 140 128 118 143 131 121 146 134 124 132 120 110 135 123 113 138 126 116 119 111 105 144 132 122 147 135 125 133 121 111 62 48 36
62 48 36 127 115 105 130 118 108 133 121 111 136 124 114 122 110 100 107 101 97 110 104 100 113 107 103 116 110 106 137 125 115 101 93 87 126 114 104 129 117 107 132 120 110 62 48 36 62 48 36 136 124 114 139 127 117 142 130 120 145 133 123 162 146 132 134 122 112 137 125 115 140 128 118 143 131 121 146 134 124 132 120 110 135 123 113 138 126 116 141 129 119 62 48 36 62 48 36 125 113 103 106 98 92 131 119 109 134 122 112 137 125 115 123 111 101 126 114 104 129 117 107 132 120 110 135 123 113 138 126 116 124 112 102 127 115 105 130 118 108 62 48 36 62 48 36 134 122 112 137 125 115 140 128 118 143 131 121 146 134 124 114 108 104 117 111 107 120 114 110 123 117 113 144 132 122 147 135 125 133 121 111 136 124 114 153 137 123 62 48 36
62 48 36 133 121 111 136 124 114 122 110 100 139 123 109 128 116 106 113 107 103 116 110 106 119 113 109 105 99 95 126 114 104 129 117 107 132 120 110 135 123 113 138 126 116 62 48 36 62 48 36 142 130 120 145 133 123 148 136 126 134 122 112 137 125 115 140 128 118 143 131 121 146 134 124 132 120 110 135 123 113 138 126 116 141 129 119 144 132 122 147 135 125 62 48 36 62 48 36 131 119 109 134 122 112 137 125 115 123 111 101 126 114 104 129 117 107 132 120 110 135 123 113 138 126 116 124 112 102 127 115 105 130 118 108 147 131 117 136 124 114 62 48 36 62 48 36 140 128 118 143 131 121 146 134 124 132 120 110 135 123 113 120 114 110 123 117 113 126 120 116 129 123 119 133 121 111 136 124 114 139 127 117 142 130 120 145 133 123 62 48 36
62 48 36 122 110 100 125 113 103 128 116 106 131 119 109 134 122 112 119 113 109 105 99 95 108 102 98 111 105 101 132 120 110 135 123 113 138 126 116 124 112 102 127 115 105 62 48 36 62 48 36 148 136 126 134 122 112 137 125 115 140 128 118 143 131 121 146 134 124 132 120 110 135 123 113 138 126 116 141 129 119 144 132 122 161 145 131 133 121 111 114 106 100 62 48 36 62 48 36 137 125 115 123 111 101 126 114 104 129 117 107 132 120 110 135 123 113 138 126 116 124 112 102 127 115 105 130 118 108 133 121 111 136 124 114 122 110 100 125 113 103 62 48 36 62 48 36 146 134 124 132 120 110 135 123 113 138 126 116 119 111 105 126 120 116 129 123 119 115 109 105 118 112 108 139 127 117 142 130 120 145 133 123 148 136 126 134 122 112 62 48 36
62 48 36 128 116 106 131 119 109 134 122 112 137 125 115 101 93 87 108 102 98 111 105 101 114 108 104 117 111 107 138 126 116 138 122 108 127 115 105 130 118 108 133 121 111 62 48 36 62 48 36 137 125 115 140 128 118 143 131 121 146 134 124 132 120 110 135 123 113 138 126 116 141 129 119 144 132 122 147 135 125 133 121 111 114 106 100 139 127 117 142 130 120 62 48 36 62 48 36 126 114 104 129 117 107 132 120 110 135 123 113 138 126 116 124 112 102 127 115 105 130 118 108 133 121 111 136 124 114 122 110 100 125 113 103 128 116 106 131 119 109 62 48 36 62 48 36 135 123 113 138 126 116 119 111 105 158 142 128 147 135 125 115 109 105 118 112 108 121 115 111 124 118 114 145 133 123 148 136 126 134 122 112 137 125 115 140 128 118 62 48 36
62 48 36 134 122 112 137 125 115 101 93 87 126 114 104 129 117 107 132 120 110 135 123 113 138 126 116 124 112 102 127 115 105 130 118 108 133 121 111 136 124 114 122 110 100 62 48 36 62 48 36 143 131 121 146 134 124 132 120 110 135 123 113 138 126 116 141 129 119 144 132 122 147 135 125 133 121 111 114 106 100 139 127 117 142 130 120 145 133 123 148 136 126 62 48 36 62 48 36 132 120 110 135 123 113 152 136 122 124 112 102 127 115 105 130 118 108 133 121 111 136 124 114 122 110 100 125 113 103 128 116 106 131 119 109 134 122 112 137 125 115 62 48 36 62 48 36 119 111 105 144 132 122 147 135 125 133 121 111 136 124 114 139 127 117 142 130 120 145 133 123 148 136 126 134 122 112 137 125 115 140 128 118 143 131 121 146 134 124 62 48 36
62 48 36 101 93 87 126 114 104 129 117 107 132 120 110 135 123 113 138 126 116 124 112 102 127 115 105 130 118 108 133 121 111 136 124 114 122 110 100 125 113 103 128 116 106 62 48 36 62 48 36 132 120 110 149 133 119 138 126 116 141 129 119 144 132 122 147 135 125 133 121 111 114 106 100 139 127 117 142 130 120 145 133 123 148 136 126 134 122 112 137 125 115 62 48 36 62 48 36 138 126 116 124 112 102 127 115 105 130 118 108 133 121 111 136 124 114 122 110 100 125 113 103 128 116 106 131 119 109 134 122 112 137 125 115 123 111 101 126 114 104 62 48 36 62 48 36 147 135 125 133 121 111 136 124 114 139 127 117 142 130 120 145 133 123 148 136 126 134 122 112 137 125 115 140 128 118 157 141 127 146 134 124 132 120 110 135 123 113 62 48 36
62 48 36 143 127 113 132 120 110 135 123 113 138 126 116 124 112 102 127 115 105 130 118 108 133 121 111 136 124 114 122 110 100 125 113 103 128 116 106 131 119 109 134 122 112 62 48 36 62 48 36 138 126 116 141 129 119 144 132 122 147 135 125 133 121 111 114 106 100 139 127 117 142 130 120 145 133 123 148 136 126 134 122 112 137 125 115 140 128 118 143 131 121 62 48 36 62 48 36 127 115 105 130 118 108 133 121 111 136 124 114 122 110 100 125 113 103 128 116 106 131 119 109 134 122 112 151 135 121 123 111 101 126 114 104 107 99 93 132 120 110 62 48 36 62 48 36 136 124 114 139 127 117 142 130 120 145 133 123 148 136 126 134 122 112 137 125 115 140 128 118 143 131 121 146 134 124 132 120 110 135 123 113 138 126 116 141 129 119 62 48 36
62 48 36 135 123 113 138 126 116 124 112 102 127 115 105 130 118 108 133 121 111 136 124 114 122 110 100 125 113 103 128 116 106 131 119 109 134 122 112 137 125 115 123 111 101 62 48 36 62 48 36 144 132 122 147 135 125 133 121 111 114 106 100 139 127 117 142 130 120 145 133 123 148 136 126 148 132 118 137 125 115 140 128 118 143 131 121 146 134 124 132 120 110 62 48 36 62 48 36 133 121 111 136 124 114 122 110 100 125 113 103 128 116 106 131 119 109 134 122 112 137 125 115 123 111 101 126 114 104 107 99 93 132 120 110 135 123 113 138 126 116 62 48 36 62 48 36 142 130 120 145 133 123 148 136 126 134 122 112 137 125 115 140 128 118 143 131 121 146 134 124 132 120 110 135 123 113 138 126 116 141 129 119 144 132 122 147 135 125 62 48 36
62 48 36 124 112 102 127 115 105 130 118 108 133 121 111 136 124 114 122 110 100 125 113 103 142 126 112 131 119 109 134 122 112 137 125 115 123 111 101 126 114 104 129 117 107 62 48 36 62 48 36 133 121 111 114 106 100 139 127 117 142 130 120 145 133 123 148 136 126 134 122 112 137 125 115 140 128 118 143 131 121 146 134 124 132 120 110 135 123 113 138 126 116 62 48 36 62 48 36 122 110 100 125 113 103 128 116 106 131 119 109 134 122 112 137 125 115 123 111 101 126 114 104 107 99 93 132 120 110 135 123 113 138 126 116 124 112 102 127 115 105 62 48 36 62 48 36 162 146 132 134 122 112 137 125 115 140 128 118 143 131 121 146 134 124 132 120 110 135 123 113 138 126 116 141 129 119 144 132 122 147 135 125 133 121 111 136 124 114 62 48 36
62 48 36 62 48 36 62 48 36 62 48 36 62 48 36 62 48 36 62 48 36 62 48 36 62 48 36 62 48 36 62 48 36 62 48 36 62 48 36 62 48 36 62 48 36 62 48 36 62 48 36 62 48 36 62 48 36 62 48 36 62 48 36 62 48 36 62 48 36 62 48 36 62 48 36 62 48 36 62 48 36 62 48 36 62 48 36 62 48 36 62 48 36 62 48 36 62 48 36 62 48 36 62 48 36 62 48 36 62 48 36 62 48 36 62 48 36 62 48 36 62 48 36 62 48 36 62 48 36 62 48 36 62 48 36 62 48 36 62 48 36 62 48 36 62 48 36 62 48 36 62 48 36 62 48 36 62 48 36 62 48 36 62 48 36 62 48 36 62 48 36 62 48 36 62 48 36 62 48 36 62 48 36 62 48 36 62 48 36 62 48 36
62 48 36 62 48 36 62 48 36 62 48 36 62 48 36 62 48 36 62 48 36 62 48 36 62 48 36 62 48 36 62 48 36 62 48 36 62 48 36 62 48 36 62 48 36 62 48 36 62 48 36 62 48 36 62 48 36 62 48 36 62 48 36 62 48 36 62 48 36 62 48 36 62 48 36 62 48 36 62 48 36 62 48 36 62 48 36 62 48 36 62 48 36 62 48 36 62 48 36 62 48 36 62 48 36 62 48 36 62 48 36 62 48 36 62 48 36 62 48 36 62 48 36 62 48 36 62 48 36 62 48 36 62 48 36 62 48 36 62 48 36 62 48 36 62 48 36 62 48 36 62 48 36 62 48 36 62 48 36 62 48 36 62 48 36 62 48 36 62 48 36 62 48 36 62 48 36 62 48 36 62 48 36 62 48 36 62 48 36 62 48 36
62 48 36 137 125 115 140 128 118 143 131 121 146 134 124 132 120 110 135 123 113 138 126 116 141 129 119 144 132 122 147 135 125 133 121 111 114 106 100 139 127 117 142 130 120 62 48 36 62 48 36 126 114 104 129 117 107 132 120 110 135 123 113 138 126 116 124 112 102 127 115 105 130 118 108 133 121 111 136 124 114 122 110 100 125 113 103 128 116 106 131 119 109 62 48 36 62 48 36 135 123 113 138 126 116 119 111 105 144 132 122 147 135 125 133 121 111 150 134 120 139 127 117 142 130 120 145 133 123 148 136 126 134 122 112 137 125 115 140 128 118 62 48 36 62 48 36 124 112 102 127 115 105 130 118 108 133 121 111 136 124 114 122 110 100 125 113 103 128 116 106 131 119 109 112 104 98 137 125 115 123 111 101 126 114 104 129 117 107 62 48 36
62 48 36 143 131 121 146 134 124 132 120 110 135 123 113 138 126 116 141 129 119 144 132 122 147 135 125 133 121 111 114 106 100 139 127 117 142 130 120 145 133 123 148 136 126 62 48 36 62 48 36 132 120 110 135 123 113 138 126 116 124 112 102 127 115 105 144 128 114 133 121 111 136 124 114 122 110 100 125 113 103 128 116 106 131 119 109 134 122 112 137 125 115 62 48 36 62 48 36 119 111 105 144 132 122 147 135 125 133 121 111 136 124 114 139 127 117 142 130 120 145 133 123 148 136 126 134 122 112 137 125 115 140 128 118 143 131 121 146 134 124 62 48 36 62 48 36 130 118 108 133 121 111 136 124 114 122 110 100 125 113 103 128 116 106 131 119 109 112 104 98 137 125 115 123 111 101 126 114 104 129 117 107 132 120 110 135 123 113 62 48 36
62 48 36 132 120 110 135 123 113 138 126 116 141 129 119 158 142 128 147 135 125 133 121 111 114 106 100 139 127 117 142 130 120 145 133 123 148 136 126 134 122 112 137 125 115 62 48 36 62 48 36 138 126 116 124 112 102 127 115 105 130 118 108 133 121 111 136 124 114 122 110 100 125 113 103 128 116 106 131 119 109 134 122 112 137 125 115 123 111 101 126 114 104 62 48 36 62 48 36 147 135 125 133 121 111 136 124 114 139 127 117 142 130 120 145 133 123 148 136 126 134 122 112 137 125 115 140 128 118 143 131 121 146 134 124 132 120 110 149 133 119 62 48 36 62 48 36 136 124 114 122 110 100 125 113 103 128 116 106 131 119 109 112 104 98 137 125 115 123 111 101 126 114 104 129 117 107 132 120 110 135 123 113 138 126 116 124 112 102 62 48 36
62 48 36 138 126 116 141 129 119 144 132 122 147 135 125 133 121 111 114 106 100 139 127 117 142 130 120 145 133 123 148 136 126 134 122 112 137 125 115 140 128 118 143 131 121 62 48 36 62 48 36 127 115 105 130 118 108 133 121 111 136 124 114 122 110 100 125 113 103 128 116 106 131 119 109 134 122 112 137 125 115 123 111 101 126 114 104 107 99 93 132 120 110 62 48 36 62 48 36 136 124 114 139 127 117 142 130 120 145 133 123 148 136 126 134 122 112 137 125 115 140 128 118 143 131 121 146 134 124 132 120 110 135 123 113 138 126 116 141 129 119 62 48 36 62 48 36 125 113 103 128 116 106 131 119 109 112 104 98 137 125 115 123 111 101 126 114 104 129 117 107 132 120 110 135 123 113 138 126 116 124 112 102 127 115 105 130 118 108 62 48 36
62 48 36 144 132 122 147 135 125 133 121 111 114 106 100 139 127 117 142 130 120 145 133 123 148 136 126 134 122 112 137 125 115 140 128 118 157 141 127 146 134 124 132 120 110 62 48 36 62 48 36 133 121 111 136 124 114 122 110 100 125 113 103 128 116 106 131 119 109 134 122 112 137 125 115 123 111 101 126 114 104 107 99 93 132 120 110 135 123 113 138 126 116 62 48 36 62 48 36 142 130 120 145 133 123 148 136 126 134 122 112 137 125 115 140 128 118 143 131 121 146 134 124 132 120 110 135 123 113 138 126 116 141 129 119 144 132 122 147 135 125 62 48 36 62 48 36 131 119 109 112 104 98 137 125 115 123 111 101 140 124 110 129 117 107 132 120 110 135 123 113 138 126 116 124 112 102 127 115 105 130 118 108 133 121 111 136 124 114 62 48 36
62 48 36 133 121 111 114 106 100 139 127 117 142 130 120 145 133 123 148 136 126 134 122 112 137 125 115 140 128 118 143 131 121 146 134 124 132 120 110 135 123 113 138 126 116 62 48 36 62 48 36 122 110 100 125 113 103 128 116 106 131 119 109 134 122 112 137 125 115 123 111 101 126 114 104 107 99 93 132 120 110 135 123 113 138 126 116 124 112 102 127 115 105 62 48 36 62 48 36 148 136 126 134 122 112 137 125 115 154 138 124 143 131 121 128 122 118 114 108 104 117 111 107 120 114 110 141 129 119 144 132 122 147 135 125 133 121 111 136 124 114 62 48 36 62 48 36 137 125 115 123 111 101 126 114 104 129 117 107 132 120 110 135 123 113 138 126 116 124 112 102 127 115 105 130 118 108 133 121 111 136 124 114 122 110 100 125 113 103 62 48 36
62 48 36 139 127 117 142 130 120 145 133 123 148 136 126 134 122 112 137 125 115 140 128 118 143 131 121 146 134 124 132 120 110 135 123 113 138 126 116 141 129 119 144 132 122 62 48 36 62 48 36 128 116 106 131 119 109 148 132 118 137 125 115 123 111 101 126 114 104 107 99 93 132 120 110 135 123 113 138 126 116 124 112 102 127 115 105 130 118 108 133 121 111 62 48 36 62 48 36 137 125 115 140 128 118 143 131 121 146 134 124 132 120 110 117 111 107 120 114 110 123 117 113 126 120 116 147 135 125 133 121 111 136 124 114 139 127 117 120 112 106 62 48 36 62 48 36 126 114 104 129 117 107 132 120 110 135 123 113 138 126 116 124 112 102 127 115 105 130 118 108 133 121 111 136 124 114 122 110 100 139 123 109 128 116 106 131 119 109 62 48 36
62 48 36 145 133 123 162 146 132 134 122 112 137 125 115 140 128 118 143 131 121 146 134 124 132 120 110 135 123 113 138 126 116 141 129 119 144 132 122 147 135 125 133 121 111 62 48 36 62 48 36 134 122 112 137 125 115 123 111 101 126 114 104 107 99 93 132 120 110 135 123 113 138 126 116 124 112 102 127 115 105 130 118 108 133 121 111 136 124 114 122 110 100 62 48 36 62 48 36 143 131 121 146 134 124 132 120 110 135 123 113 138 126 116 123 117 113 126 120 116 129 123 119 115 109 105 136 124 114 153 137 123 120 112 106 145 133 123 148 136 126 62 48 36 62 48 36 132 120 110 135 123 113 138 126 116 124 112 102 127 115 105 130 118 108 133 121 111 136 124 114 122 110 100 125 113 103 128 116 106 131 119 109 134 122 112 137 125 115 62 48 36
62 48 36 134 122 112 137 125 115 140 128 118 143 131 121 146 134 124 132 120 110 135 123 113 138 126 116 141 129 119 144 132 122 147 135 125 133 121 111 136 124 114 139 127 117 62 48 36 62 48 36 123 111 101 126 114 104 107 99 93 132 120 110 135 123 113 138 126 116 124 112 102 127 115 105 130 118 108 147 131 117 136 124 114 122 110 100 125 113 103 128 116 106 62 48 36 62 48 36 132 120 110 135 123 113 138 126 116 141 129 119 144 132 122 129 123 119 115 109 105 118 112 108 121 115 111 120 112 106 145 133 123 148 136 126 134 122 112 137 125 115 62 48 36 62 48 36 138 126 116 124 112 102 127 115 105 130 118 108 133 121 111 136 124 114 122 110 100 125 113 103 128 116 106 131 119 109 134 122 112 137 125 115 123 111 101 126 114 104 62 48 36
62 48 36 140 128 118 143 131 121 146 134 124 132 120 110 135 123 113 138 126 116 141 129 119 144 132 122 161 145 131 133 121 111 136 124 114 139 127 117 142 130 120 145 133 123 62 48 36 62 48 36 107 99 93 132 120 110 135 123 113 138 126 116 124 112 102 127 115 105 130 118 108 133 121 111 136 124 114 122 110 100 125 113 103 128 116 106 131 119 109 134 122 112 62 48 36 62 48 36 138 126 116 141 129 119 144 132 122 147 135 125 133 121 111 136 124 114 139 127 117 120 112 106 145 133 123 148 136 126 134 122 112 137 125 115 140 128 118 143 131 121 62 48 36 62 48 36 127 115 105 144 128 114 133 121 111 136 124 114 122 110 100 125 113 103 128 116 106 131 119 109 134 122 112 137 125 115 123 111 101 126 114 104 129 117 107 132 120 110 62 48 36
62 48 36 146 134 124 132 120 110 135 123 113 138 126 116 141 129 119 144 132 122 147 135 125 133 121 111 136 124 114 139 127 117 142 130 120 145 133 123 148 136 126 134 122 112 62 48 36 62 48 36 135 123 113 138 126 116 124 112 102 127 115 105 130 118 108 133 121 111 136 124 114 122 110 100 125 113 103 128 116 106 131 119 109 134 122 112 137 125 115 123 111 101 62 48 36 62 48 36 158 142 128 147 135 125 133 121 111 136 124 114 139 127 117 120 112 106 145 133 123 148 136 126 134 122 112 137 125 115 140 128 118 143 131 121 146 134 124 132 120 110 62 48 36 62 48 36 133 121 111 136 124 114 122 110 100 125 113 103 128 116 106 131 119 109 134 122 112 137 125 115 123 111 101 126 114 104 129 117 107 132 120 110 113 105 99 138 126 116 62 48 36
62 48 36 135 123 113 138 126 116 141 129 119 144 132 122 147 135 125 133 121 111 136 124 114 139 127 117 142 130 120 145 133 123 148 136 126 134 122 112 115 107 101 140 128 118 62 48 36 62 48 36 124 112 102 127 115 105 130 118 108 133 121 111 136 124 114 122 110 100 125 113 103 128 116 106 131 119 109 134 122 112 137 125 115 123 111 101 126 114 104 129 117 107 62 48 36 62 48 36 133 121 111 136 124 114 139 127 117 120 112 106 145 133 123 148 136 126 134 122 112 137 125 115 140 128 118 143 131 121 146 134 124 132 120 110 135 123 113 138 126 116 62 48 36 62 48 36 122 110 100 125 113 103 128 116 106 131 119 109 134 122 112 137 125 115 123 111 101 126 114 104 143 127 113 132 120 110 113 105 99 138 126 116 124 112 102 127 115 105 62 48 36
62 48 36 141 129 119 144 132 122 147 135 125 133 121 111 136 124 114 139 127 117 142 130 120 145 133 123 148 136 126 134 122 112 115 107 101 140 128 118 143 131 121 146 134 124 62 48 36 62 48 36 130 118 108 133 121 111 136 124 114 122 110 100 125 113 103 128 116 106 131 119 109 134 122 112 137 125 115 123 111 101 126 114 104 129 117 107 132 120 110 135 123 113 62 48 36 62 48 36 139 127 117 120 112 106 145 133 123 148 136 126 134 122 112 137 125 115 140 128 118 157 141 127 146 134 124 132 120 110 135 123 113 138 126 116 141 129 119 144 132 122 62 48 36 62 48 36 128 116 106 131 119 109 134 122 112 137 125 115 123 111 101 126 114 104 129 117 107 132 120 110 113 105 99 138 126 116 124 112 102 127 115 105 130 118 108 133 121 111 62 48 36
62 48 36 147 135 125 133 121 111 136 124 114 139 127 117 142 130 120 145 133 123 148 136 126 134 122 112 115 107 101 140 128 118 143 131 121 146 134 124 132 120 110 135 123 113 62 48 36 62 48 36 136 124 114 122 110 100 125 113 103 128 116 106 131 119 109 134 122 112 151 135 121 123 111 101 126 114 104 129 117 107 132 120 110 135 123 113 138 126 116 124 112 102 62 48 36 62 48 36 145 133 123 148 136 126 134 122 112 137 125 115 140 128 118 143 131 121 146 134 124 132 120 110 135 123 113 138 126 116 141 129 119 144 132 122 147 135 125 133 121 111 62 48 36 62 48 36 134 122 112 137 125 115 123 111 101 126 114 104 129 117 107 132 120 110 113 105 99 138 126 116 124 112 102 127 115 105 130 118 108 133 121 111 136 124 114 122 110 100 62 48 36
62 48 36 62 48 36 62 48 36 62 48 36 62 48 36 62 48 36 62 48 36 62 48 36 62 48 36 62 48 36 62 48 36 62 48 36 62 48 36 62 48 36 62 48 36 62 48 36 62 48 36 62 48 36 62 48 36 62 48 36 62 48 36 62 48 36 62 48 36 62 48 36 62 48 36 62 48 36 62 48 36 62 48 36 62 48 36 62 48 36 62 48 36 62 48 36 62 48 36 62 48 36 62 48 36 62 48 36 62 48 36 62 48 36 62 48 36 62 48 36 62 48 36 62 48 36 62 48 36 62 48 36 62 48 36 62 48 36 62 48 36 62 48 36 62 48 36 62 48 36 62 48 36 62 48 36 62 48 36 62 48 36 62 48 36 62 48 36 62 48 36 62 48 36 62 48 36 62 48 36 62 48 36 62 48 36 62 48 36 62 48 36
62 48 36 62 48 36 62 48 36 62 48 36 62 48 36 62 48 36 62 48 36 62 48 36 62 48 36 62 48 36 62 48 36 62 48 36 62 48 36 62 48 36 62 48 36 62 48 36 62 48 36 62 48 36 62 48 36 62 48 36 62 48 36 62 48 36 62 48 36 62 48 36 62 48 36 62 48 36 62 48 36 62 48 36 62 48 36 62 48 36 62 48 36 62 48 36 62 48 36 62 48 36 62 48 36 62 48 36 62 48 36 62 48 36 62 48 36 62 48 36 62 48 36 62 48 36 62 48 36 62 48 36 62 48 36 62 48 36 62 48 36 62 48 36 62 48 36 62 48 36 62 48 36 62 48 36 62 48 36 62 48 36 62 48 36 62 48 36 62 48 36 62 48 36 62 48 36 62 48 36 62 48 36 62 48 36 62 48 36 62 48 36
62 48 36 123 111 101 126 114 104 107 99 93 132 120 110 135 123 113 138 126 116 124 112 102 127 115 105 130 118 108 133 121 111 136 124 114 122 110 100 139 123 109 128 116 106 62 48 36 62 48 36 132 120 110 135 123 113 138 126 116 141 129 119 144 132 122 147 135 125 133 121 111 136 124 114 139 127 117 120 112 106 145 133 123 148 136 126 134 122 112 137 125 115 62 48 36 62 48 36 138 126 116 124 112 102 127 115 105 130 118 108 133 121 111 136 124 114 122 110 100 125 113 103 128 116 106 131 119 109 134 122 112 137 125 115 123 111 101 126 114 104 62 48 36 62 48 36 125 117 111 133 121 111 136 124 114 139 127 117 142 130 120 159 143 129 148 136 126 134 122 112 137 125 115 140 128 118 143 131 121 146 134 124 132 120 110 135 123 113 62 48 36
62 48 36 107 99 93 132 120 110 135 123 113 138 126 116 124 112 102 127 115 105 130 118 108 133 121 111 136 124 114 122 110 100 125 113 103 128 116 106 131 119 109 134 122 112 62 48 36 62 48 36 138 126 116 141 129 119 144 132 122 147 135 125 133 121 111 136 124 114 139 127 117 120 112 106 145 133 123 148 136 126 134 122 112 137 125 115 140 128 118 143 131 121 62 48 36 62 48 36 127 115 105 130 118 108 133 121 111 136 124 114 136 120 106 125 113 103 128 116 106 131 119 109 134 122 112 137 125 115 123 111 101 126 114 104 129 117 107 132 120 110 62 48 36 62 48 36 136 124 114 139 127 117 142 130 120 145 133 123 148 136 126 134 122 112 137 125 115 140 128 118 143 131 121 146 134 124 132 120 110 135 123 113 138 126 116 141 129 119 62 48 36
62 48 36 135 123 113 138 126 116 124 112 102 127 115 105 130 118 108 133 121 111 136 124 114 122 110 100 125 113 103 128 116 106 131 119 109 134 122 112 137 125 115 123 111 101 62 48 36 62 48 36 144 132 122 147 135 125 133 121 111 150 134 120 139 127 117 120 112 106 145 133 123 148 136 126 134 122 112 137 125 115 140 128 118 143 131 121 146 134 124 132 120 110 62 48 36 62 48 36 133 121 111 136 124 114 122 110 100 125 113 103 128 116 106 131 119 109 134 122 112 137 125 115 123 111 101 126 114 104 129 117 107 132 120 110 113 105 99 138 126 116 62 48 36 62 48 36 142 130 120 145 133 123 148 136 126 134 122 112 137 125 115 140 128 118 143 131 121 146 134 124 132 120 110 135 123 113 138 126 116 141 129 119 158 142 128 147 135 125 62 48 36
62 48 36 124 112 102 127 115 105 144 128 114 133 121 111 136 124 114 122 110 100 125 113 103 128 116 106 131 119 109 134 122 112 137 125 115 123 111 101 126 114 104 129 117 107 62 48 36 62 48 36 133 121 111 136 124 114 139 127 117 120 112 106 145 133 123 148 136 126 134 122 112 137 125 115 140 128 118 143 131 121 146 134 124 132 120 110 135 123 113 138 126 116 62 48 36 62 48 36 122 110 100 125 113 103 128 116 106 131 119 109 134 122 112 137 125 115 123 111 101 126 114 104 129 117 107 132 120 110 113 105 99 152 136 122 124 112 102 127 115 105 62 48 36 62 48 36 148 136 126 134 122 112 137 125 115 140 128 118 143 131 121 146 134 124 132 120 110 135 123 113 138 126 116 141 129 119 144 132 122 147 135 125 133 121 111 136 124 114 62 48 36
62 48 36 130 118 108 133 121 111 136 124 114 122 110 100 125 113 103 128 116 106 131 119 109 134 122 112 137 125 115 123 111 101 126 114 104 129 117 107 132 120 110 135 123 113 62 48 36 62 48 36 139 127 117 120 112 106 145 133 123 148 136 126 134 122 112 137 125 115 140 128 118 143 131 121 146 134 124 132 120 110 149 133 119 138 126 116 141 129 119 144 132 122 62 48 36 62 48 36 128 116 106 131 119 109 134 122 112 137 125 115 123 111 101 126 114 104 129 117 107 132 120 110 113 105 99 138 126 116 124 112 102 127 115 105 130 118 108 133 121 111 62 48 36 62 48 36 137 125 115 140 128 118 143 131 121 146 134 124 132 120 110 135 123 113 138 126 116 141 129 119 144 132 122 147 135 125 133 121 111 136 124 114 139 127 117 142 130 120 62 48 36
62 48 36 136 124 114 122 110 100 125 113 103 128 116 106 131 119 109 134 122 112 137 125 115 123 111 101 126 114 104 143 127 113 132 120 110 135 123 113 138 126 116 124 112 102 62 48 36 62 48 36 145 133 123 148 136 126 134 122 112 137 125 115 140 128 118 125 119 115 128 122 118 114 108 104 117 111 107 138 126 116 141 129 119 144 132 122 147 135 125 133 121 111 62 48 36 62 48 36 134 122 112 137 125 115 123 111 101 126 114 104 129 117 107 132 120 110 113 105 99 138 126 116 124 112 102 127 115 105 130 118 108 133 121 111 136 124 114 122 110 100 62 48 36 62 48 36 143 131 121 146 134 124 146 130 116 135 123 113 138 126 116 141 129 119 144 132 122 147 135 125 133 121 111 136 124 114 139 127 117 142 130 120 145 133 123 126 118 112 62 48 36
62 48 36 125 113 103 128 116 106 131 119 109 134 122 112 137 125 115 123 111 101 126 114 104 129 117 107 132 120 110 135 123 113 138 126 116 124 112 102 127 115 105 108 100 94 62 48 36 62 48 36 134 122 112 137 125 115 140 128 118 143 131 121 146 134 124 114 108 104 117 111 107 120 114 110 123 117 113 144 132 122 147 135 125 133 121 111 136 124 114 139 127 117 62 48 36 62 48 36 123 111 101 140 124 110 129 117 107 132 120 110 113 105 99 138 126 116 124 112 102 127 115 105 130 118 108 133 121 111 136 124 114 122 110 100 125 113 103 128 116 106 62 48 36 62 48 36 132 120 110 135 123 113 138 126 116 141 129 119 144 132 122 147 135 125 133 121 111 136 124 114 139 127 117 142 130 120 145 133 123 126 118 112 134 122 112 137 125 115 62 48 36
62 48 36 131 119 109 134 122 112 137 125 115 123 111 101 126 114 104 129 117 107 132 120 110 135 123 113 138 126 116 124 112 102 127 115 105 108 100 94 133 121 111 136 124 114 62 48 36 62 48 36 154 138 124 143 131 121 146 134 124 132 120 110 135 123 113 120 114 110 123 117 113 126 120 116 129 123 119 133 121 111 136 124 114 139 127 117 142 130 120 145 133 123 62 48 36 62 48 36 129 117 107 132 120 110 113 105 99 138 126 116 124 112 102 127 115 105 130 118 108 133 121 111 136 124 114 122 110 100 125 113 103 128 116 106 131 119 109 134 122 112 62 48 36 62 48 36 138 126 116 141 129 119 144 132 122 147 135 125 133 121 111 136 124 114 139 127 117 142 130 120 145 133 123 126 118 112 134 122 112 137 125 115 140 128 118 143 131 121 62 48 36
62 48 36 137 125 115 123 111 101 126 114 104 129 117 107 132 120 110 135 123 113 138 126 116 124 112 102 127 115 105 108 100 94 133 121 111 136 124 114 122 110 100 125 113 103 62 48 36 62 48 36 146 134 124 132 120 110 135 123 113 138 126 116 141 129 119 126 120 116 129 123 119 115 109 105 118 112 108 139 127 117 142 130 120 145 133 123 148 136 126 134 122 112 62 48 36 62 48 36 113 105 99 138 126 116 124 112 102 127 115 105 130 118 108 133 121 111 136 124 114 122 110 100 139 123 109 128 116 106 131 119 109 134 122 112 137 125 115 123 111 101 62 48 36 62 48 36 144 132 122 147 135 125 133 121 111 136 124 114 139 127 117 142 130 120 145 133 123 126 118 112 134 122 112 137 125 115 140 128 118 143 131 121 146 134 124 132 120 110 62 48 36
62 48 36 126 114 104 129 117 107 132 120 110 135 123 113 138 126 116 124 112 102 127 115 105 108 100 94 133 121 111 136 124 114 122 110 100 125 113 103 128 116 106 131 119 109 62 48 36 62 48 36 135 123 113 138 126 116 141 129 119 144 132 122 147 135 125 133 121 111 136 124 114 153 137 123 142 130 120 145 133 123 148 136 126 134 122 112 137 125 115 140 128 118 62 48 36 62 48 36 124 112 102 127 115 105 130 118 108 133 121 111 136 124 114 122 110 100 125 113 103 128 116 106 131 119 109 134 122 112 137 125 115 123 111 101 126 114 104 129 117 107 62 48 36 62 48 36 133 121 111 136 124 114 139 127 117 142 130 120 145 133 123 126 118 112 134 122 112 137 125 115 140 128 118 143 131 121 146 134 124 132 120 110 135 123 113 138 126 116 62 48 36
62 48 36 132 120 110 135 123 113 138 126 116 124 112 102 127 115 105 108 100 94 147 131 117 136 124 114 122 110 100 125 113 103 128 116 106 131 119 109 134 122 112 137 125 115 62 48 36 62 48 36 141 129 119 144 132 122 147 135 125 133 121 111 136 124 114 139 127 117 142 130 120 145 133 123 148 136 126 134 122 112 137 125 115 140 128 118 121 113 107 146 134 124 62 48 36 62 48 36 130 118 108 133 121 111 136 124 114 122 110 100 125 113 103 128 116 106 131 119 109 134 122 112 137 125 115 123 111 101 126 114 104 129 117 107 132 120 110 135 123 113 62 48 36 62 48 36 139 127 117 142 130 120 145 133 123 126 118 112 134 122 112 137 125 115 140 128 118 143 131 121 146 134 124 132 120 110 135 123 113 138 126 116 141 129 119 144 132 122 62 48 36
62 48 36 138 126 116 124 112 102 127 115 105 108 100 94 133 121 111 136 124 114 122 110 100 125 113 103 128 116 106 131 119 109 134 122 112 137 125 115 123 111 101 126 114 104 62 48 36 62 48 36 147 135 125 133 121 111 136 124 114 139 127 117 142 130 120 145 133 123 148 136 126 134 122 112 137 125 115 140 128 118 121 113 107 146 134 124 132 120 110 135 123 113 62 48 36 62 48 36 136 124 114 122 110 100 125 113 103 128 116 106 131 119 109 134 122 112 137 125 115 123 111 101 126 114 104 129 117 107 132 120 110 135 123 113 138 126 116 124 112 102 62 48 36 62 48 36 145 133 123 126 118 112 134 122 112 137 125 115 140 128 118 143 131 121 146 134 124 132 120 110 135 123 113 138 126 116 141 129 119 144 132 122 147 135 125 133 121 111 62 48 36
62 48 36 127 115 105 108 100 94 133 121 111 136 124 114 122 110 100 125 113 103 128 116 106 131 119 109 134 122 112 137 125 115 123 111 101 126 114 104 129 117 107 146 130 116 62 48 36 62 48 36 136 124 114 139 127 117 142 130 120 145 133 123 148 136 126 134 122 112 137 125 115 140 128 118 121 113 107 146 134 124 132 120 110 135 123 113 138 126 116 141 129 119 62 48 36 62 48 36 125 113 103 128 116 106 131 119 109 134 122 112 137 125 115 123 111 101 126 114 104 129 117 107 132 120 110 135 123 113 138 126 116 124 112 102 127 115 105 130 118 108 62 48 36 62 48 36 134 122 112 137 125 115 140 128 118 143 131 121 146 134 124 132 120 110 149 133 119 138 126 116 141 129 119 144 132 122 147 135 125 133 121 111 136 124 114 139 127 117 62 48 36
62 48 36 133 121 111 136 124 114 122 110 100 125 113 103 128 116 106 131 119 109 134 122 112 137 125 115 123 111 101 126 114 104 129 117 107 132 120 110 135 123 113 138 126 116 62 48 36 62 48 36 142 130 120 145 133 123 148 136 126 134 122 112 137 125 115 140 128 118 121 113 107 146 134 124 132 120 110 135 123 113 138 126 116 141 129 119 144 132 122 147 135 125 62 48 36 62 48 36 131 119 109 134 122 112 137 125 115 123 111 101 126 114 104 143 127 113 132 120 110 135 123 113 138 126 116 124 112 102 127 115 105 130 118 108 133 121 111 114 106 100 62 48 36 62 48 36 140 128 118 143 131 121 146 134 124 132 120 110 135 123 113 138 126 116 141 129 119 144 132 122 147 135 125 133 121 111 136 124 114 139 127 117 142 130 120 145 133 123 62 48 36
62 48 36 62 48 36 62 48 36 62 48 36 62 48 36 62 48 36 62 48 36 62 48 36 62 48 36 62 48 36 62 48 36 62 48 36 62 48 36 62 48 36 62 48 36 62 48 36 62 48 36 62 48 36 62 48 36 62 48 36 62 48 36 62 48 36 62 48 36 62 48 36 62 48 36 62 48 36 62 48 36 62 48 36 62 48 36 62 48 36 62 48 36 62 48 36 62 48 36 62 48 36 62 48 36 62 48 36 62 48 36 62 48 36 62 48 36 62 48 36 62 48 36 62 48 36 62 48 36 62 48 36 62 48 36 62 48 36 62 48 36 62 48 36 62 48 36 62 48 36 62 48 36 62 48 36 62 48 36 62 48 36 62 48 36 62 48 36 62 48 36 62 48 36 62 48 36 62 48 36 62 48 36 62 48 36 62 48 36 62 48 36
62 48 36 62 48 36 62 48 36 62 48 36 62 48 36 62 48 36 62 48 36 62 48 36 62 48 36 62 48 36 62 48 36 62 48 36 62 48 36 62 48 36 62 48 36 62 48 36 62 48 36 62 48 36 62 48 36 62 48 36 62 48 36 62 48 36 62 48 36 62 48 36 62 48 36 62 48 36 62 48 36 62 48 36 62 48 36 62 48 36 62 48 36 62 48 36 62 48 36 62 48 36 62 48 36 62 48 36 62 48 36 62 48 36 62 48 36 62 48 36 62 48 36 62 48 36 62 48 36 62 48 36 62 48 36 62 48 36 62 48 36 62 48 36 62 48 36 62 48 36 62 48 36 62 48 36 62 48 36 62 48 36 62 48 36 62 48 36 62 48 36 62 48 36 62 48 36 62 48 36 62 48 36 62 48 36 62 48 36 62 48 36
62 48 36 146 134 124 132 120 110 135 123 113 138 126 116 141 129 119 144 132 122 147 135 125 133 121 111 136 124 114 139 127 117 142 130 120 145 133 123 148 136 126 134 122 112 62 48 36 62 48 36 113 105 99 138 126 116 124 112 102 127 115 105 130 118 108 133 121 111 136 124 114 122 110 100 125 113 103 128 116 106 131 119 109 148 132 118 137 125 115 123 111 101 62 48 36 62 48 36 144 132 122 147 135 125 133 121 111 136 124 114 139 127 117 142 130 120 145 133 123 126 118 112 134 122 112 137 125 115 140 128 118 143 131 121 146 134 124 132 120 110 62 48 36 62 48 36 133 121 111 136 124 114 122 110 100 125 113 103 128 116 106 131 119 109 134 122 112 137 125 115 123 111 101 126 114 104 129 117 107 132 120 110 135 123 113 138 126 116 62 48 36
62 48 36 135 123 113 138 126 116 141 129 119 144 132 122 147 135 125 133 121 111 136 124 114 139 127 117 142 130 120 145 133 123 162 146 132 134 122 112 137 125 115 140 128 118 62 48 36 62 48 36 124 112 102 127 115 105 130 118 108 133 121 111 136 124 114 122 110 100 125 113 103 128 116 106 131 119 109 134 122 112 137 125 115 123 111 101 126 114 104 129 117 107 62 48 36 62 48 36 133 121 111 136 124 114 139 127 117 142 130 120 145 133 123 126 118 112 134 122 112 137 125 115 140 128 118 143 131 121 146 134 124 132 120 110 135 123 113 138 126 116 62 48 36 62 48 36 122 110 100 125 113 103 128 116 106 145 129 115 134 122 112 137 125 115 123 111 101 126 114 104 129 117 107 132 120 110 135 123 113 138 126 116 102 94 88 127 115 105 62 48 36
62 48 36 141 129 119 144 132 122 147 135 125 133 121 111 136 124 114 139 127 117 142 130 120 145 133 123 148 136 126 134 122 112 137 125 115 140 128 118 121 113 107 146 134 124 62 48 36 62 48 36 130 118 108 133 121 111 136 124 114 122 110 100 125 113 103 128 116 106 131 119 109 134 122 112 137 125 115 123 111 101 126 114 104 129 117 107 132 120 110 135 123 113 62 48 36 62 48 36 139 127 117 142 130 120 159 143 129 126 118 112 134 122 112 137 125 115 140 128 118 143 131 121 146 134 124 132 120 110 135 123 113 138 126 116 141 129 119 144 132 122 62 48 36 62 48 36 128 116 106 131 119 109 134 122 112 137 125 115 123 111 101 126 114 104 129 117 107 132 120 110 135 123 113 138 126 116 102 94 88 127 115 105 130 118 108 133 121 111 62 48 36
62 48 36 147 135 125 133 121 111 136 124 114 139 127 117 142 130 120 145 133 123 148 136 126 134 122 112 137 125 115 140 128 118 121 113 107 146 134 124 132 120 110 135 123 113 62 48 36 62 48 36 136 124 114 136 120 106 125 113 103 128 116 106 131 119 109 134 122 112 137 125 115 123 111 101 126 114 104 129 117 107 132 120 110 135 123 113 138 126 116 124 112 102 62 48 36 62 48 36 145 133 123 126 118 112 134 122 112 137 125 115 140 128 118 143 131 121 146 134 124 132 120 110 135 123 113 138 126 116 141 129 119 144 132 122 147 135 125 133 121 111 62 48 36 62 48 36 134 122 112 137 125 115 123 111 101 126 114 104 129 117 107 132 120 110 135 123 113 138 126 116 102 94 88 127 115 105 144 128 114 133 121 111 136 124 114 122 110 100 62 48 36
62 48 36 150 134 120 139 127 117 142 130 120 145 133 123 148 136 126 134 122 112 137 125 115 140 128 118 121 113 107 146 134 124 132 120 110 135 123 113 138 126 116 141 129 119 62 48 36 62 48 36 125 113 103 128 116 106 131 119 109 134 122 112 137 125 115 123 111 101 126 114 104 129 117 107 132 120 110 135 123 113 138 126 116 124 112 102 127 115 105 130 118 108 62 48 36 62 48 36 134 122 112 137 125 115 140 128 118 143 131 121 146 134 124 132 120 110 135 123 113 138 126 116 141 129 119 158 142 128 147 135 125 133 121 111 136 124 114 139 127 117 62 48 36 62 48 36 123 111 101 126 114 104 129 117 107 132 120 110 135 123 113 138 126 116 102 94 88 127 115 105 130 118 108 133 121 111 136 124 114 122 110 100 125 113 103 128 116 106 62 48 36
62 48 36 142 130 120 145 133 123 148 136 126 134 122 112 137 125 115 122 116 112 125 119 115 128 122 118 114 108 104 135 123 113 138 126 116 141 129 119 144 132 122 147 135 125 62 48 36 62 48 36 131 119 109 134 122 112 137 125 115 123 111 101 126 114 104 129 117 107 132 120 110 135 123 113 152 136 122 124 112 102 127 115 105 130 118 108 133 121 111 114 106 100 62 48 36 62 48 36 140 128 118 143 131 121 146 134 124 132 120 110 135 123 113 138 126 116 141 129 119 144 132 122 147 135 125 133 121 111 136 124 114 139 127 117 142 130 120 145 133 123 62 48 36 62 48 36 129 117 107 132 120 110 135 123 113 138 126 116 102 94 88 109 103 99 112 106 102 115 109 105 118 112 108 122 110 100 125 113 103 128 116 106 131 119 109 134 122 112 62 48 36
62 48 36 148 136 126 134 122 112 137 125 115 140 128 118 121 113 107 128 122 118 114 108 104 117 111 107 120 114 110 141 129 119 144 132 122 147 135 125 133 121 111 136 124 114 62 48 36 62 48 36 137 125 115 123 111 101 126 114 104 129 117 107 132 120 110 135 123 113 138 126 116 124 112 102 127 115 105 130 118 108 133 121 111 114 106 100 122 110 100 125 113 103 62 48 36 62 48 36 146 134 124 132 120 110 135 123 113 138 126 116 141 129 119 144 132 122 147 135 125 133 121 111 136 124 114 139 127 117 142 130 120 145 133 123 148 136 126 134 122 112 62 48 36 62 48 36 149 133 119 138 126 116 102 94 88 127 115 105 130 118 108 115 109 105 118 112 108 104 98 94 107 101 97 128 116 106 131 119 109 134 122 112 137 125 115 123 111 101 62 48 36
62 48 36 137 125 115 140 128 118 121 113 107 146 134 124 132 120 110 117 111 107 120 114 110 123 117 113 126 120 116 147 135 125 133 121 111 136 124 114 139 127 117 142 130 120 62 48 36 62 48 36 126 114 104 129 117 107 132 120 110 135 123 113 138 126 116 124 112 102 127 115 105 130 118 108 133 121 111 114 106 100 122 110 100 125 113 103 128 116 106 131 119 109 62 48 36 62 48 36 135 123 113 138 126 116 141 129 119 144 132 122 147 135 125 133 121 111 136 124 114 139 127 117 142 130 120 145 133 123 148 136 126 134 122 112 137 125 115 140 128 118 62 48 36 62 48 36 102 94 88 127 115 105 130 118 108 133 121 111 136 124 114 104 98 94 107 101 97 110 104 100 113 107 103 134 122 112 137 125 115 123 111 101 126 114 104 129 117 107 62 48 36
62 48 36 121 113 107 146 134 124 132 120 110 135 123 113 138 126 116 123 117 113 126 120 116 129 123 119 115 109 105 136 124 114 139 127 117 142 130 120 145 133 123 148 136 126 62 48 36 62 48 36 132 120 110 135 123 113 138 126 116 124 112 102 127 115 105 130 118 108 133 121 111 114 106 100 122 110 100 125 113 103 128 116 106 131 119 109 134 122 112 137 125 115 62 48 36 62 48 36 141 129 119 144 132 122 147 135 125 133 121 111 136 124 114 139 127 117 142 130 120 145 133 123 148 136 126 134 122 112 137 125 115 140 128 118 143 131 121 146 134 124 62 48 36 62 48 36 130 118 108 133 121 111 136 124 114 122 110 100 125 113 103 110 104 100 113 107 103 116 110 106 119 113 109 123 111 101 126 114 104 129 117 107 132 120 110 135 123 113 62 48 36
62 48 36 132 120 110 135 123 113 138 126 116 141 129 119 144 132 122 147 135 125 133 121 111 136 124 114 139 127 117 142 130 120 145 133 123 148 136 126 134 122 112 137 125 115 62 48 36 62 48 36 138 126 116 124 112 102 127 115 105 130 118 108 133 121 111 114 106 100 122 110 100 125 113 103 128 116 106 131 119 109 134 122 112 137 125 115 123 111 101 126 114 104 62 48 36 62 48 36 147 135 125 133 121 111 136 124 114 139 127 117 142 130 120 145 133 123 162 146 132 134 122 112 137 125 115 140 128 118 143 131 121 146 134 124 110 102 96 135 123 113 62 48 36 62 48 36 136 124 114 122 110 100 125 113 103 128 116 106 131 119 109 134 122 112 137 125 115 123 111 101 126 114 104 129 117 107 132 120 110 135 123 113 138 126 116 124 112 102 62 48 36
62 48 36 138 126 116 141 129 119 144 132 122 147 135 125 133 121 111 136 124 114 139 127 117 142 130 120 145 133 123 148 136 126 134 122 112 137 125 115 140 128 118 143 131 121 62 48 36 62 48 36 127 115 105 130 118 108 133 121 111 114 106 100 122 110 100 139 123 109 128 116 106 131 119 109 134 122 112 137 125 115 123 111 101 126 114 104 129 117 107 132 120 110 62 48 36 62 48 36 136 124 114 139 127 117 142 130 120 145 133 123 148 136 126 134 122 112 137 125 115 140 128 118 143 131 121 146 134 124 110 102 96 135 123 113 138 126 116 141 129 119 62 48 36 62 48 36 125 113 103 128 116 106 131 119 109 134 122 112 137 125 115 123 111 101 126 114 104 129 117 107 132 120 110 135 123 113 138 126 116 124 112 102 127 115 105 130 118 108 62 48 36
62 48 36 144 132 122 147 135 125 133 121 111 136 124 114 153 137 123 142 130 120 145 133 123 148 136 126 134 122 112 137 125 115 140 128 118 143 131 121 146 134 124 132 120 110 62 48 36 62 48 36 133 121 111 114 106 100 122 110 100 125 113 103 128 116 106 131 119 109 134 122 112 137 125 115 123 111 101 126 114 104 129 117 107 132 120 110 135 123 113 138 126 116 62 48 36 62 48 36 142 130 120 145 133 123 148 136 126 134 122 112 137 125 115 140 128 118 143 131 121 146 134 124 110 102 96 135 123 113 138 126 116 141 129 119 144 132 122 161 145 131 62 48 36 62 48 36 131 119 109 134 122 112 137 125 115 123 111 101 126 114 104 129 117 107 132 120 110 135 123 113 138 126 116 124 112 102 127 115 105 130 118 108 133 121 111 136 124 114 62 48 36
62 48 36 133 121 111 136 124 114 139 127 117 142 130 120 145 133 123 148 136 126 134 122 112 137 125 115 140 128 118 143 131 121 146 134 124 132 120 110 135 123 113 138 126 116 62 48 36 62 48 36 122 110 100 125 113 103 128 116 106 131 119 109 134 122 112 137 125 115 123 111 101 126 114 104 129 117 107 132 120 110 135 123 113 138 126 116 138 122 108 127 115 105 62 48 36 62 48 36 148 136 126 134 122 112 137 125 115 140 128 118 143 131 121 146 134 124 110 102 96 135 123 113 138 126 116 141 129 119 144 132 122 147 135 125 133 121 111 136 124 114 62 48 36 62 48 36 137 125 115 123 111 101 126 114 104 129 117 107 132 120 110 135 123 113 138 126 116 124 112 102 127 115 105 130 118 108 133 121 111 136 124 114 122 110 100 103 95 89 62 48 36
62 48 36 139 127 117 142 130 120 145 133 123 148 136 126 134 122 112 137 125 115 140 128 118 143 131 121 146 134 124 132 120 110 135 123 113 152 136 122 141 129 119 122 114 108 62 48 36 62 48 36 128 116 106 131 119 109 134 122 112 137 125 115 123 111 101 126 114 104 129 117 107 132 120 110 135 123 113 138 126 116 124 112 102 127 115 105 130 118 108 133 121 111 62 48 36 62 48 36 137 125 115 140 128 118 143 131 121 146 134 124 110 102 96 135 123 113 138 126 116 141 129 119 144 132 122 147 135 125 133 121 111 136 124 114 139 127 117 142 130 120 62 48 36 62 48 36 126 114 104 129 117 107 132 120 110 135 123 113 152 136 122 124 112 102 127 115 105 130 118 108 133 121 111 136 124 114 122 110 100 103 95 89 128 116 106 131 119 109 62 48 36
62 48 36 62 48 36 62 48 36 62 48 36 62 48 36 62 48 36 62 48 36 62 48 36 62 48 36 62 48 36 62 48 36 62 48 36 62 48 36 62 48 36 62 48 36 62 48 36 62 48 36 62 48 36 62 48 36 62 48 36 62 48 36 62 48 36 62 48 36 62 48 36 62 48 36 62 48 36 62 48 36 62 48 36 62 48 36 62 48 36 62 48 36 62 48 36 62 48 36 62 48 36 62 48 36 62 48 36 62 48 36 62 48 36 62 48 36 62 48 36 62 48 36 62 48 36 62 48 36 62 48 36 62 48 36 62 48 36 62 48 36 62 48 36 62 48 36 62 48 36 62 48 36 62 48 36 62 48 36 62 48 36 62 48 36 62 48 36 62 48 36 62 48 36 62 48 36 62 48 36 62 48 36 62 48 36 62 48 36 62 48 36
