P3
64 64
255
37 27 22 55 43 34 55 43 34 55 43 34 55 43 34 55 43 34 55 43 34 55 43 34 55 43 34 55 43 34 55 43 34 55 43 34 55 43 34 55 43 34 55 43 34 55 43 34 55 43 34 55 43 34 55 43 34 55 43 34 55 43 34 55 43 34 55 43 34 55 43 34 55 43 34 55 43 34 55 43 34 55 43 34 31 23 20 31 23 20 31 23 20 13 7 8 31 23 20 31 23 20 31 23 20 31 23 20 55 43 34 55 43 34 55 43 34 55 43 34 55 43 34 55 43 34 55 43 34 55 43 34 55 43 34 55 43 34 55 43 34 37 27 22 55 43 34 55 43 34 55 43 34 55 43 34 55 43 34 55 43 34 55 43 34 55 43 34 55 43 34 55 43 34 55 43 34 55 43 34 55 43 34 55 43 34 37 27 22 55 43 34
55 43 34 106 100 96 84 80 80 119 113 109 115 109 105 111 105 101 107 101 97 103 97 93 120 114 110 116 110 106 112 106 102 108 102 98 104 98 94 121 115 111 117 111 107 113 107 103 55 43 34 105 99 95 122 116 112 118 112 108 114 108 104 110 104 100 106 100 96 102 96 92 119 113 109 115 109 105 111 105 101 107 101 97 79 77 79 96 94 96 92 90 92 88 86 88 31 23 20 62 62 68 97 95 97 93 91 93 113 107 103 109 103 99 105 99 95 122 116 112 118 112 108 114 108 104 110 104 100 106 100 96 102 96 92 119 113 109 97 93 93 111 105 101 55 43 34 103 97 93 120 114 110 116 110 106 112 106 102 108 102 98 104 98 94 121 115 111 117 111 107 113 107 103 109 103 99 105 99 95 122 116 112 118 112 108 114 108 104 110 104 100
55 43 34 114 108 104 110 104 100 106 100 96 84 80 80 119 113 109 115 109 105 111 105 101 107 101 97 103 97 93 120 114 110 116 110 106 112 106 102 108 102 98 104 98 94 121 115 111 55 43 34 113 107 103 109 103 99 105 99 95 122 116 112 118 112 108 114 108 104 110 104 100 106 100 96 102 96 92 119 113 109 115 109 105 87 85 87 83 81 83 79 77 79 96 94 96 31 23 20 88 86 88 84 82 84 62 62 68 121 115 111 117 111 107 113 107 103 109 103 99 105 99 95 122 116 112 118 112 108 114 108 104 110 104 100 88 84 84 102 96 92 119 113 109 55 43 34 111 105 101 107 101 97 103 97 93 120 114 110 116 110 106 112 106 102 108 102 98 104 98 94 121 115 111 117 111 107 113 107 103 109 103 99 105 99 95 122 116 112 118 112 108
55 43 34 122 116 112 118 112 108 114 108 104 110 104 100 106 100 96 84 80 80 119 113 109 115 109 105 111 105 101 107 101 97 103 97 93 120 114 110 116 110 106 112 106 102 108 102 98 55 43 34 121 115 111 117 111 107 113 107 103 109 103 99 105 99 95 122 116 112 118 112 108 114 108 104 110 104 100 106 100 96 102 96 92 119 113 109 115 109 105 111 105 101 107 101 97 55 43 34 120 114 110 116 110 106 112 106 102 108 102 98 86 82 82 121 115 111 117 111 107 113 107 103 109 103 99 105 99 95 122 116 112 100 96 96 114 108 104 110 104 100 106 100 96 55 43 34 119 113 109 115 109 105 111 105 101 107 101 97 103 97 93 120 114 110 116 110 106 112 106 102 108 102 98 104 98 94 121 115 111 117 111 107 113 107 103 109 103 99 105 99 95
55 43 34 109 103 99 105 99 95 122 116 112 118 112 108 114 108 104 110 104 100 106 100 96 84 80 80 119 113 109 115 109 105 111 105 101 107 101 97 103 97 93 120 114 110 116 110 106 55 43 34 108 102 98 104 98 94 121 115 111 117 111 107 113 107 103 109 103 99 105 99 95 122 116 112 118 112 108 114 108 104 110 104 100 106 100 96 102 96 92 119 113 109 115 109 105 55 43 34 107 101 97 103 97 93 120 114 110 116 110 106 112 106 102 108 102 98 86 82 82 121 115 111 117 111 107 113 107 103 91 87 87 105 99 95 122 116 112 118 112 108 114 108 104 55 43 34 106 100 96 102 96 92 119 113 109 115 109 105 111 105 101 107 101 97 103 97 93 120 114 110 116 110 106 112 106 102 108 102 98 104 98 94 121 115 111 117 111 107 113 107 103
55 43 34 117 111 107 113 107 103 109 103 99 105 99 95 122 116 112 118 112 108 114 108 104 110 104 100 106 100 96 84 80 80 119 113 109 115 109 105 111 105 101 107 101 97 103 97 93 55 43 34 116 110 106 112 106 102 108 102 98 104 98 94 121 115 111 117 111 107 113 107 103 109 103 99 105 99 95 122 116 112 118 112 108 114 108 104 110 104 100 106 100 96 102 96 92 55 43 34 115 109 105 111 105 101 107 101 97 103 97 93 120 114 110 116 110 106 112 106 102 108 102 98 86 82 82 103 99 99 117 111 107 113 107 103 109 103 99 105 99 95 122 116 112 55 43 34 114 108 104 110 104 100 106 100 96 102 96 92 119 113 109 115 109 105 111 105 101 107 101 97 103 97 93 120 114 110 116 110 106 112 106 102 108 102 98 104 98 94 121 115 111
55 43 34 104 98 94 121 115 111 117 111 107 113 107 103 109 103 99 105 99 95 122 116 112 118 112 108 114 108 104 110 104 100 106 100 96 84 80 80 119 113 109 115 109 105 111 105 101 55 43 34 103 97 93 120 114 110 116 110 106 112 106 102 108 102 98 104 98 94 121 115 111 117 111 107 113 107 103 109 103 99 105 99 95 122 116 112 118 112 108 114 108 104 110 104 100 55 43 34 102 96 92 119 113 109 115 109 105 111 105 101 107 101 97 103 97 93 120 114 110 116 110 106 94 90 90 108 102 98 86 82 82 121 115 111 117 111 107 113 107 103 109 103 99 55 43 34 122 116 112 118 112 108 114 108 104 110 104 100 106 100 96 102 96 92 119 113 109 115 109 105 111 105 101 107 101 97 103 97 93 120 114 110 116 110 106 112 106 102 108 102 98
55 43 34 112 106 102 108 102 98 104 98 94 121 115 111 117 111 107 113 107 103 109 103 99 105 99 95 122 116 112 118 112 108 114 108 104 110 104 100 106 100 96 84 80 80 119 113 109 55 43 34 111 105 101 107 101 97 103 97 93 120 114 110 116 110 106 112 106 102 108 102 98 104 98 94 121 115 111 117 111 107 113 107 103 109 103 99 105 99 95 122 116 112 118 112 108 55 43 34 110 104 100 106 100 96 102 96 92 119 113 109 115 109 105 111 105 101 107 101 97 85 81 81 120 114 110 116 110 106 112 106 102 108 102 98 86 82 82 121 115 111 117 111 107 55 43 34 109 103 99 105 99 95 122 116 112 118 112 108 114 108 104 110 104 100 106 100 96 102 96 92 119 113 109 115 109 105 111 105 101 107 101 97 103 97 93 120 114 110 116 110 106
55 43 34 120 114 110 116 110 106 112 106 102 108 102 98 104 98 94 121 115 111 117 111 107 113 107 103 109 103 99 105 99 95 122 116 112 118 112 108 114 108 104 110 104 100 106 100 96 37 27 22 119 113 109 115 109 105 111 105 101 107 101 97 103 97 93 120 114 110 116 110 106 112 106 102 108 102 98 104 98 94 121 115 111 117 111 107 113 107 103 109 103 99 105 99 95 55 43 34 118 112 108 114 108 104 110 104 100 106 100 96 102 96 92 119 113 109 97 93 93 111 105 101 107 101 97 103 97 93 120 114 110 116 110 106 112 106 102 108 102 98 86 82 82 55 43 34 117 111 107 113 107 103 109 103 99 105 99 95 122 116 112 118 112 108 114 108 104 110 104 100 106 100 96 102 96 92 119 113 109 115 109 105 111 105 101 107 101 97 103 97 93
55 43 34 107 101 97 103 97 93 120 114 110 116 110 106 112 106 102 108 102 98 104 98 94 121 115 111 117 111 107 113 107 103 109 103 99 105 99 95 122 116 112 118 112 108 114 108 104 55 43 34 106 100 96 84 80 80 119 113 109 115 109 105 111 105 101 107 101 97 103 97 93 120 114 110 116 110 106 112 106 102 108 102 98 104 98 94 121 115 111 117 111 107 113 107 103 55 43 34 105 99 95 122 116 112 118 112 108 114 108 104 110 104 100 88 84 84 102 96 92 119 113 109 115 109 105 111 105 101 107 101 97 103 97 93 120 114 110 116 110 106 112 106 102 55 43 34 86 82 82 121 115 111 117 111 107 113 107 103 109 103 99 105 99 95 122 116 112 118 112 108 114 108 104 110 104 100 106 100 96 102 96 92 119 113 109 115 109 105 111 105 101
55 43 34 115 109 105 111 105 101 107 101 97 103 97 93 120 114 110 116 110 106 112 106 102 108 102 98 104 98 94 121 115 111 117 111 107 113 107 103 109 103 99 105 99 95 122 116 112 55 43 34 114 108 104 110 104 100 106 100 96 84 80 80 119 113 109 115 109 105 111 105 101 107 101 97 103 97 93 120 114 110 116 110 106 112 106 102 108 102 98 104 98 94 121 115 111 55 43 34 113 107 103 109 103 99 105 99 95 122 116 112 100 96 96 114 108 104 110 104 100 106 100 96 102 96 92 119 113 109 115 109 105 111 105 101 107 101 97 103 97 93 120 114 110 55 43 34 112 106 102 108 102 98 86 82 82 121 115 111 117 111 107 113 107 103 109 103 99 105 99 95 122 116 112 118 112 108 114 108 104 110 104 100 106 100 96 102 96 92 119 113 109
55 43 34 94 90 88 111 107 105 107 103 101 103 99 97 99 95 93 95 91 89 112 108 106 108 104 102 104 100 98 100 96 94 96 92 90 113 109 107 109 105 103 105 101 99 101 97 95 55 43 34 114 110 108 110 106 104 106 102 100 102 98 96 98 94 92 76 74 76 111 107 105 107 103 101 103 99 97 99 95 93 95 91 89 112 108 106 108 104 102 104 100 98 100 96 94 55 43 34 113 109 107 109 105 103 105 101 99 83 81 83 97 93 91 114 110 108 110 106 104 106 102 100 102 98 96 98 94 92 94 90 88 111 107 105 107 103 101 103 99 97 99 95 93 55 43 34 112 108 106 108 104 102 104 100 98 100 96 94 78 76 78 113 109 107 109 105 103 105 101 99 101 97 95 97 93 91 114 110 108 110 106 104 106 102 100 102 98 96 98 94 92
55 43 34 102 98 96 98 94 92 94 90 88 111 107 105 107 103 101 103 99 97 99 95 93 95 91 89 112 108 106 108 104 102 104 100 98 100 96 94 96 92 90 113 109 107 109 105 103 55 43 34 101 97 95 97 93 91 114 110 108 110 106 104 106 102 100 102 98 96 98 94 92 76 74 76 111 107 105 107 103 101 103 99 97 99 95 93 95 91 89 112 108 106 108 104 102 55 43 34 100 96 94 96 92 90 95 93 95 109 105 103 105 101 99 101 97 95 97 93 91 114 110 108 110 106 104 106 102 100 102 98 96 98 94 92 94 90 88 111 107 105 107 103 101 55 43 34 99 95 93 95 91 89 112 108 106 108 104 102 104 100 98 100 96 94 78 76 78 113 109 107 109 105 103 105 101 99 101 97 95 97 93 91 114 110 108 110 106 104 106 102 100
55 43 34 110 106 104 106 102 100 102 98 96 98 94 92 94 90 88 111 107 105 107 103 101 103 99 97 99 95 93 95 91 89 112 108 106 108 104 102 104 100 98 100 96 94 96 92 90 55 43 34 109 105 103 105 101 99 101 97 95 97 93 91 114 110 108 110 106 104 106 102 100 102 98 96 98 94 92 76 74 76 111 107 105 107 103 101 103 99 97 99 95 93 95 91 89 55 43 34 108 104 102 86 84 86 100 96 94 96 92 90 113 109 107 109 105 103 105 101 99 101 97 95 97 93 91 114 110 108 110 106 104 106 102 100 102 98 96 98 94 92 94 90 88 55 43 34 107 103 101 103 99 97 99 95 93 95 91 89 112 108 106 108 104 102 104 100 98 100 96 94 78 76 78 113 109 107 109 105 103 105 101 99 101 97 95 97 93 91 114 110 108
55 43 34 97 93 91 114 110 108 110 106 104 106 102 100 102 98 96 98 94 92 94 90 88 111 107 105 107 103 101 103 99 97 99 95 93 95 91 89 112 108 106 108 104 102 104 100 98 55 43 34 96 92 90 113 109 107 109 105 103 105 101 99 101 97 95 97 93 91 114 110 108 110 106 104 106 102 100 102 98 96 98 94 92 76 74 76 111 107 105 107 103 101 103 99 97 55 43 34 77 75 77 112 108 106 108 104 102 104 100 98 100 96 94 96 92 90 113 109 107 109 105 103 105 101 99 101 97 95 97 93 91 114 110 108 110 106 104 106 102 100 102 98 96 55 43 34 94 90 88 111 107 105 107 103 101 103 99 97 99 95 93 95 91 89 112 108 106 108 104 102 104 100 98 100 96 94 78 76 78 113 109 107 109 105 103 105 101 99 101 97 95
55 43 34 105 101 99 101 97 95 97 93 91 114 110 108 110 106 104 106 102 100 102 98 96 98 94 92 94 90 88 111 107 105 107 103 101 103 99 97 99 95 93 95 91 89 112 108 106 55 43 34 104 100 98 100 96 94 96 92 90 113 109 107 109 105 103 105 101 99 101 97 95 97 93 91 114 110 108 110 106 104 106 102 100 102 98 96 98 94 92 76 74 76 111 107 105 37 27 22 103 99 97 99 95 93 95 91 89 112 108 106 108 104 102 104 100 98 100 96 94 96 92 90 113 109 107 109 105 103 105 101 99 101 97 95 97 93 91 114 110 108 110 106 104 55 43 34 102 98 96 98 94 92 94 90 88 111 107 105 107 103 101 103 99 97 99 95 93 95 91 89 112 108 106 108 104 102 104 100 98 100 96 94 78 76 78 113 109 107 109 105 103
55 43 34 37 27 22 55 43 34 55 43 34 55 43 34 55 43 34 55 43 34 55 43 34 55 43 34 55 43 34 55 43 34 55 43 34 55 43 34 55 43 34 55 43 34 55 43 34 55 43 34 55 43 34 55 43 34 55 43 34 55 43 34 55 43 34 55 43 34 55 43 34 55 43 34 55 43 34 55 43 34 55 43 34 55 43 34 55 43 34 55 43 34 37 27 22 37 27 22 55 43 34 55 43 34 55 43 34 55 43 34 55 43 34 55 43 34 55 43 34 55 43 34 55 43 34 55 43 34 55 43 34 55 43 34 55 43 34 55 43 34 55 43 34 55 43 34 55 43 34 55 43 34 55 43 34 55 43 34 55 43 34 55 43 34 55 43 34 55 43 34 55 43 34 55 43 34 55 43 34 55 43 34 55 43 34 55 43 34 37 27 22
102 96 92 119 113 109 115 109 105 93 89 89 107 101 97 103 97 93 120 114 110 116 110 106 55 43 34 108 102 98 104 98 94 121 115 111 117 111 107 113 107 103 109 103 99 105 99 95 122 116 112 118 112 108 114 108 104 110 104 100 106 100 96 102 96 92 119 113 109 115 109 105 55 43 34 107 101 97 103 97 93 120 114 110 116 110 106 112 106 102 90 86 86 104 98 94 121 115 111 117 111 107 95 91 91 109 103 99 105 99 95 122 116 112 118 112 108 114 108 104 55 43 34 106 100 96 102 96 92 119 113 109 115 109 105 111 105 101 107 101 97 103 97 93 120 114 110 116 110 106 112 106 102 108 102 98 104 98 94 121 115 111 117 111 107 113 107 103 55 43 34 105 99 95 122 116 112 118 112 108 114 108 104 110 104 100 106 100 96 102 96 92
110 104 100 106 100 96 102 96 92 119 113 109 115 109 105 93 89 89 107 101 97 103 97 93 55 43 34 116 110 106 112 106 102 108 102 98 104 98 94 121 115 111 117 111 107 113 107 103 109 103 99 105 99 95 122 116 112 118 112 108 114 108 104 110 104 100 106 100 96 102 96 92 55 43 34 115 109 105 111 105 101 107 101 97 103 97 93 102 98 98 116 110 106 112 106 102 108 102 98 104 98 94 121 115 111 117 111 107 95 91 91 109 103 99 105 99 95 122 116 112 55 43 34 114 108 104 110 104 100 106 100 96 102 96 92 119 113 109 115 109 105 111 105 101 107 101 97 103 97 93 120 114 110 116 110 106 112 106 102 108 102 98 104 98 94 121 115 111 55 43 34 113 107 103 109 103 99 105 99 95 122 116 112 118 112 108 114 108 104 110 104 100
118 112 108 114 108 104 110 104 100 106 100 96 102 96 92 119 113 109 115 109 105 93 89 89 55 43 34 103 97 93 120 114 110 116 110 106 112 106 102 108 102 98 104 98 94 121 115 111 117 111 107 113 107 103 109 103 99 105 99 95 122 116 112 118 112 108 114 108 104 110 104 100 55 43 34 102 96 92 119 113 109 115 109 105 69 69 75 83 81 83 79 77 79 96 94 96 92 90 92 88 86 88 84 82 84 80 78 80 121 115 111 117 111 107 95 91 91 109 103 99 55 43 34 122 116 112 118 112 108 114 108 104 110 104 100 106 100 96 102 96 92 119 113 109 115 109 105 111 105 101 107 101 97 103 97 93 120 114 110 116 110 106 112 106 102 108 102 98 55 43 34 121 115 111 117 111 107 113 107 103 109 103 99 105 99 95 122 116 112 118 112 108
105 99 95 122 116 112 118 112 108 114 108 104 110 104 100 106 100 96 102 96 92 119 113 109 55 43 34 93 89 89 107 101 97 103 97 93 120 114 110 116 110 106 112 106 102 108 102 98 104 98 94 121 115 111 117 111 107 113 107 103 109 103 99 105 99 95 122 116 112 118 112 108 55 43 34 110 104 100 106 100 96 84 80 80 95 93 95 91 89 91 87 85 87 83 81 83 79 77 79 96 94 96 92 90 92 88 86 88 108 102 98 104 98 94 121 115 111 117 111 107 37 27 22 109 103 99 105 99 95 122 116 112 118 112 108 114 108 104 110 104 100 106 100 96 102 96 92 119 113 109 115 109 105 111 105 101 107 101 97 103 97 93 120 114 110 116 110 106 55 43 34 108 102 98 104 98 94 121 115 111 117 111 107 113 107 103 109 103 99 105 99 95
113 107 103 109 103 99 105 99 95 122 116 112 118 112 108 114 108 104 110 104 100 106 100 96 55 43 34 119 113 109 115 109 105 93 89 89 107 101 97 103 97 93 120 114 110 116 110 106 112 106 102 108 102 98 104 98 94 121 115 111 117 111 107 113 107 103 109 103 99 105 99 95 55 43 34 118 112 108 96 92 92 110 104 100 82 80 82 78 76 78 95 93 95 91 89 91 87 85 87 83 81 83 79 77 79 96 94 96 116 110 106 112 106 102 108 102 98 104 98 94 55 43 34 117 111 107 95 91 91 109 103 99 105 99 95 122 116 112 118 112 108 114 108 104 110 104 100 106 100 96 102 96 92 119 113 109 115 109 105 111 105 101 107 101 97 103 97 93 55 43 34 116 110 106 112 106 102 108 102 98 104 98 94 121 115 111 117 111 107 113 107 103
121 115 111 117 111 107 113 107 103 109 103 99 105 99 95 122 116 112 118 112 108 114 108 104 55 43 34 106 100 96 102 96 92 119 113 109 115 109 105 93 89 89 107 101 97 103 97 93 120 114 110 116 110 106 112 106 102 108 102 98 104 98 94 121 115 111 117 111 107 113 107 103 55 43 34 87 83 83 122 116 112 118 112 108 114 108 104 110 104 100 106 100 96 102 96 92 119 113 109 115 109 105 111 105 101 107 101 97 103 97 93 120 114 110 116 110 106 112 106 102 55 43 34 104 98 94 121 115 111 117 111 107 95 91 91 109 103 99 105 99 95 122 116 112 118 112 108 114 108 104 110 104 100 106 100 96 102 96 92 119 113 109 115 109 105 111 105 101 55 43 34 103 97 93 120 114 110 116 110 106 112 106 102 108 102 98 104 98 94 121 115 111
108 102 98 104 98 94 121 115 111 117 111 107 113 107 103 109 103 99 105 99 95 122 116 112 55 43 34 114 108 104 110 104 100 106 100 96 102 96 92 119 113 109 115 109 105 93 89 89 107 101 97 103 97 93 120 114 110 116 110 106 112 106 102 108 102 98 104 98 94 121 115 111 37 27 22 113 107 103 109 103 99 105 99 95 122 116 112 118 112 108 114 108 104 110 104 100 106 100 96 102 96 92 119 113 109 115 109 105 111 105 101 107 101 97 103 97 93 120 114 110 55 43 34 112 106 102 108 102 98 104 98 94 121 115 111 117 111 107 95 91 91 109 103 99 105 99 95 122 116 112 118 112 108 114 108 104 110 104 100 106 100 96 102 96 92 119 113 109 55 43 34 111 105 101 107 101 97 103 97 93 120 114 110 116 110 106 112 106 102 108 102 98
116 110 106 112 106 102 108 102 98 104 98 94 121 115 111 117 111 107 113 107 103 109 103 99 55 43 34 122 116 112 118 112 108 114 108 104 110 104 100 106 100 96 102 96 92 119 113 109 115 109 105 93 89 89 107 101 97 103 97 93 120 114 110 116 110 106 112 106 102 90 86 86 55 43 34 121 115 111 117 111 107 113 107 103 109 103 99 105 99 95 122 116 112 118 112 108 114 108 104 110 104 100 106 100 96 102 96 92 119 113 109 115 109 105 111 105 101 107 101 97 55 43 34 120 114 110 116 110 106 112 106 102 108 102 98 104 98 94 121 115 111 117 111 107 95 91 91 109 103 99 105 99 95 122 116 112 118 112 108 114 108 104 110 104 100 106 100 96 55 43 34 119 113 109 115 109 105 111 105 101 107 101 97 103 97 93 120 114 110 116 110 106
103 97 93 120 114 110 116 110 106 112 106 102 108 102 98 104 98 94 121 115 111 117 111 107 55 43 34 109 103 99 105 99 95 122 116 112 118 112 108 114 108 104 110 104 100 106 100 96 102 96 92 119 113 109 115 109 105 93 89 89 107 101 97 103 97 93 102 98 98 116 110 106 55 43 34 108 102 98 104 98 94 121 115 111 117 111 107 113 107 103 109 103 99 105 99 95 122 116 112 118 112 108 114 108 104 110 104 100 106 100 96 102 96 92 119 113 109 115 109 105 55 43 34 107 101 97 103 97 93 120 114 110 116 110 106 112 106 102 108 102 98 104 98 94 121 115 111 117 111 107 95 91 91 109 103 99 105 99 95 122 116 112 118 112 108 114 108 104 55 43 34 106 100 96 102 96 92 119 113 109 115 109 105 111 105 101 107 101 97 103 97 93
111 105 101 107 101 97 103 97 93 120 114 110 116 110 106 112 106 102 108 102 98 104 98 94 55 43 34 117 111 107 113 107 103 109 103 99 105 99 95 122 116 112 118 112 108 114 108 104 110 104 100 106 100 96 102 96 92 119 113 109 115 109 105 93 89 89 107 101 97 103 97 93 55 43 34 116 110 106 112 106 102 108 102 98 104 98 94 121 115 111 117 111 107 113 107 103 109 103 99 105 99 95 122 116 112 118 112 108 114 108 104 110 104 100 106 100 96 102 96 92 55 43 34 115 109 105 111 105 101 107 101 97 103 97 93 120 114 110 116 110 106 112 106 102 108 102 98 104 98 94 121 115 111 117 111 107 95 91 91 109 103 99 105 99 95 122 116 112 55 43 34 114 108 104 110 104 100 106 100 96 102 96 92 119 113 109 115 109 105 111 105 101
111 107 105 107 103 101 103 99 97 99 95 93 95 91 89 112 108 106 108 104 102 104 100 98 55 43 34 96 92 90 113 109 107 109 105 103 105 101 99 101 97 95 97 93 91 114 110 108 110 106 104 106 102 100 102 98 96 98 94 92 76 74 76 111 107 105 107 103 101 85 83 85 55 43 34 95 91 89 112 108 106 108 104 102 104 100 98 100 96 94 96 92 90 113 109 107 109 105 103 105 101 99 101 97 95 97 93 91 114 110 108 110 106 104 106 102 100 102 98 96 55 43 34 94 90 88 111 107 105 107 103 101 103 99 97 99 95 93 95 91 89 112 108 106 108 104 102 104 100 98 100 96 94 96 92 90 113 109 107 109 105 103 87 85 87 101 97 95 55 43 34 114 110 108 110 106 104 106 102 100 102 98 96 98 94 92 94 90 88 111 107 105
98 94 92 94 90 88 111 107 105 107 103 101 103 99 97 99 95 93 95 91 89 112 108 106 55 43 34 104 100 98 100 96 94 96 92 90 113 109 107 109 105 103 105 101 99 101 97 95 97 93 91 114 110 108 110 106 104 88 86 88 102 98 96 98 94 92 94 90 88 111 107 105 55 43 34 85 83 85 99 95 93 95 91 89 112 108 106 108 104 102 104 100 98 100 96 94 96 92 90 113 109 107 109 105 103 105 101 99 101 97 95 97 93 91 114 110 108 110 106 104 55 43 34 102 98 96 98 94 92 94 90 88 111 107 105 107 103 101 103 99 97 99 95 93 95 91 89 112 108 106 108 104 102 104 100 98 100 96 94 96 92 90 113 109 107 109 105 103 37 27 22 101 97 95 97 93 91 114 110 108 110 106 104 106 102 100 102 98 96 98 94 92
106 102 100 102 98 96 98 94 92 94 90 88 111 107 105 107 103 101 103 99 97 99 95 93 55 43 34 112 108 106 108 104 102 104 100 98 100 96 94 96 92 90 113 109 107 109 105 103 105 101 99 101 97 95 79 77 79 114 110 108 110 106 104 106 102 100 102 98 96 98 94 92 55 43 34 111 107 105 107 103 101 85 83 85 99 95 93 95 91 89 112 108 106 108 104 102 104 100 98 100 96 94 96 92 90 113 109 107 109 105 103 105 101 99 101 97 95 97 93 91 55 43 34 110 106 104 106 102 100 102 98 96 98 94 92 94 90 88 111 107 105 107 103 101 103 99 97 99 95 93 95 91 89 112 108 106 108 104 102 104 100 98 100 96 94 96 92 90 55 43 34 109 105 103 87 85 87 101 97 95 97 93 91 114 110 108 110 106 104 106 102 100
114 110 108 110 106 104 106 102 100 102 98 96 98 94 92 94 90 88 111 107 105 107 103 101 55 43 34 99 95 93 95 91 89 112 108 106 108 104 102 104 100 98 100 96 94 96 92 90 113 109 107 91 89 91 105 101 99 101 97 95 97 93 91 114 110 108 110 106 104 106 102 100 55 43 34 98 94 92 94 90 88 111 107 105 107 103 101 85 83 85 99 95 93 95 91 89 112 108 106 108 104 102 104 100 98 100 96 94 96 92 90 113 109 107 109 105 103 105 101 99 55 43 34 97 93 91 114 110 108 110 106 104 106 102 100 102 98 96 98 94 92 94 90 88 111 107 105 107 103 101 103 99 97 99 95 93 95 91 89 112 108 106 108 104 102 104 100 98 55 43 34 96 92 90 113 109 107 109 105 103 87 85 87 101 97 95 97 93 91 114 110 108
83 81 83 97 93 91 114 110 108 110 106 104 106 102 100 102 98 96 98 94 92 94 90 88 55 43 34 107 103 101 103 99 97 99 95 93 95 91 89 112 108 106 108 104 102 104 100 98 82 80 82 96 92 90 113 109 107 109 105 103 105 101 99 101 97 95 97 93 91 114 110 108 55 43 34 106 102 100 102 98 96 98 94 92 94 90 88 111 107 105 107 103 101 85 83 85 99 95 93 95 91 89 112 108 106 108 104 102 104 100 98 100 96 94 96 92 90 113 109 107 55 43 34 105 101 99 101 97 95 97 93 91 114 110 108 110 106 104 106 102 100 102 98 96 98 94 92 94 90 88 111 107 105 107 103 101 103 99 97 99 95 93 95 91 89 112 108 106 55 43 34 104 100 98 100 96 94 96 92 90 113 109 107 109 105 103 87 85 87 83 81 83
55 43 34 55 43 34 37 27 22 55 43 34 55 43 34 55 43 34 55 43 34 55 43 34 55 43 34 55 43 34 55 43 34 55 43 34 55 43 34 55 43 34 55 43 34 37 27 22 55 43 34 55 43 34 55 43 34 55 43 34 55 43 34 55 43 34 55 43 34 55 43 34 55 43 34 55 43 34 55 43 34 55 43 34 55 43 34 55 43 34 55 43 34 55 43 34 55 43 34 37 27 22 55 43 34 55 43 34 55 43 34 55 43 34 55 43 34 55 43 34 55 43 34 55 43 34 55 43 34 55 43 34 55 43 34 55 43 34 55 43 34 55 43 34 55 43 34 55 43 34 55 43 34 55 43 34 55 43 34 55 43 34 55 43 34 55 43 34 55 43 34 55 43 34 55 43 34 55 43 34 55 43 34 55 43 34 37 27 22 55 43 34
55 43 34 111 105 101 107 101 97 103 97 93 102 98 98 116 110 106 112 106 102 108 102 98 104 98 94 121 115 111 117 111 107 113 107 103 109 103 99 105 99 95 104 100 100 118 112 108 55 43 34 110 104 100 106 100 96 102 96 92 119 113 109 115 109 105 111 105 101 107 101 97 103 97 93 120 114 110 116 110 106 112 106 102 108 102 98 104 98 94 121 115 111 117 111 107 55 43 34 109 103 99 105 99 95 104 100 100 118 112 108 114 108 104 110 104 100 106 100 96 102 96 92 119 113 109 115 109 105 111 105 101 107 101 97 103 97 93 120 114 110 116 110 106 55 43 34 108 102 98 104 98 94 121 115 111 117 111 107 113 107 103 109 103 99 105 99 95 122 116 112 118 112 108 114 108 104 110 104 100 106 100 96 84 80 80 119 113 109 115 109 105
55 43 34 119 113 109 115 109 105 111 105 101 107 101 97 103 97 93 102 98 98 116 110 106 112 106 102 108 102 98 104 98 94 121 115 111 117 111 107 95 91 91 109 103 99 105 99 95 55 43 34 118 112 108 114 108 104 110 104 100 106 100 96 102 96 92 119 113 109 115 109 105 111 105 101 107 101 97 103 97 93 120 114 110 116 110 106 112 106 102 108 102 98 104 98 94 55 43 34 117 111 107 113 107 103 109 103 99 105 99 95 104 100 100 118 112 108 114 108 104 110 104 100 106 100 96 102 96 92 119 113 109 115 109 105 111 105 101 107 101 97 103 97 93 55 43 34 116 110 106 112 106 102 108 102 98 104 98 94 121 115 111 117 111 107 113 107 103 109 103 99 105 99 95 122 116 112 118 112 108 96 92 92 110 104 100 106 100 96 102 96 92
55 43 34 106 100 96 102 96 92 119 113 109 115 109 105 111 105 101 107 101 97 103 97 93 102 98 98 116 110 106 112 106 102 108 102 98 86 82 82 121 115 111 117 111 107 113 107 103 55 43 34 105 99 95 122 116 112 118 112 108 114 108 104 110 104 100 106 100 96 102 96 92 119 113 109 115 109 105 111 105 101 107 101 97 103 97 93 120 114 110 116 110 106 112 106 102 55 43 34 104 98 94 121 115 111 117 111 107 113 107 103 109 103 99 105 99 95 104 100 100 118 112 108 114 108 104 110 104 100 106 100 96 102 96 92 119 113 109 115 109 105 111 105 101 55 43 34 103 97 93 120 114 110 116 110 106 112 106 102 108 102 98 104 98 94 121 115 111 117 111 107 113 107 103 109 103 99 87 83 83 122 116 112 118 112 108 114 108 104 110 104 100
55 43 34 114 108 104 110 104 100 106 100 96 102 96 92 119 113 109 115 109 105 111 105 101 107 101 97 103 97 93 102 98 98 98 94 94 112 106 102 108 102 98 104 98 94 121 115 111 55 43 34 113 107 103 109 103 99 105 99 95 122 116 112 118 112 108 114 108 104 110 104 100 106 100 96 102 96 92 119 113 109 115 109 105 111 105 101 107 101 97 103 97 93 120 114 110 55 43 34 112 106 102 108 102 98 104 98 94 121 115 111 117 111 107 113 107 103 109 103 99 105 99 95 104 100 100 118 112 108 114 108 104 110 104 100 106 100 96 102 96 92 119 113 109 55 43 34 111 105 101 107 101 97 103 97 93 120 114 110 116 110 106 112 106 102 108 102 98 104 98 94 121 115 111 99 95 95 113 107 103 109 103 99 105 99 95 122 116 112 118 112 108
55 43 34 122 116 112 118 112 108 114 108 104 110 104 100 106 100 96 102 96 92 119 113 109 115 109 105 111 105 101 89 85 85 103 97 93 102 98 98 116 110 106 112 106 102 108 102 98 55 43 34 121 115 111 117 111 107 113 107 103 109 103 99 105 99 95 122 116 112 118 112 108 114 108 104 110 104 100 106 100 96 102 96 92 119 113 109 115 109 105 111 105 101 107 101 97 55 43 34 120 114 110 116 110 106 112 106 102 108 102 98 104 98 94 121 115 111 117 111 107 113 107 103 109 103 99 105 99 95 104 100 100 118 112 108 114 108 104 110 104 100 106 100 96 55 43 34 119 113 109 115 109 105 111 105 101 107 101 97 103 97 93 120 114 110 116 110 106 112 106 102 90 86 86 104 98 94 121 115 111 117 111 107 113 107 103 109 103 99 105 99 95
55 43 34 109 103 99 105 99 95 122 116 112 118 112 108 114 108 104 110 104 100 106 100 96 102 96 92 101 97 97 115 109 105 111 105 101 107 101 97 103 97 93 102 98 98 116 110 106 55 43 34 108 102 98 104 98 94 121 115 111 117 111 107 113 107 103 109 103 99 105 99 95 122 116 112 118 112 108 114 108 104 110 104 100 82 80 82 78 76 78 95 93 95 91 89 91 31 23 20 83 81 83 79 77 79 96 94 96 116 110 106 112 106 102 108 102 98 104 98 94 121 115 111 117 111 107 113 107 103 109 103 99 105 99 95 104 100 100 118 112 108 114 108 104 55 43 34 106 100 96 102 96 92 119 113 109 115 109 105 111 105 101 107 101 97 103 97 93 102 98 98 116 110 106 112 106 102 108 102 98 104 98 94 121 115 111 117 111 107 113 107 103
55 43 34 117 111 107 113 107 103 109 103 99 105 99 95 122 116 112 118 112 108 114 108 104 92 88 88 106 100 96 102 96 92 119 113 109 115 109 105 111 105 101 107 101 97 103 97 93 37 27 22 116 110 106 112 106 102 108 102 98 104 98 94 121 115 111 117 111 107 113 107 103 109 103 99 105 99 95 122 116 112 118 112 108 90 88 90 86 84 86 82 80 82 78 76 78 31 23 20 91 89 91 87 85 87 83 81 83 103 97 93 120 114 110 116 110 106 112 106 102 108 102 98 104 98 94 121 115 111 117 111 107 113 107 103 109 103 99 105 99 95 104 100 100 55 43 34 114 108 104 110 104 100 106 100 96 102 96 92 119 113 109 115 109 105 93 89 89 107 101 97 103 97 93 120 114 110 116 110 106 112 106 102 108 102 98 104 98 94 121 115 111
55 43 34 104 98 94 121 115 111 117 111 107 113 107 103 109 103 99 105 99 95 104 100 100 118 112 108 114 108 104 110 104 100 106 100 96 102 96 92 119 113 109 115 109 105 111 105 101 55 43 34 103 97 93 102 98 98 116 110 106 112 106 102 108 102 98 104 98 94 121 115 111 117 111 107 113 107 103 109 103 99 105 99 95 98 96 98 94 92 94 90 88 90 86 84 86 31 23 20 78 76 78 95 93 95 91 89 91 111 105 101 107 101 97 103 97 93 120 114 110 116 110 106 112 106 102 108 102 98 104 98 94 121 115 111 117 111 107 113 107 103 109 103 99 55 43 34 104 100 100 118 112 108 114 108 104 110 104 100 106 100 96 84 80 80 119 113 109 115 109 105 111 105 101 107 101 97 103 97 93 120 114 110 116 110 106 112 106 102 108 102 98
55 43 34 112 106 102 108 102 98 104 98 94 121 115 111 117 111 107 95 91 91 109 103 99 105 99 95 122 116 112 118 112 108 114 108 104 110 104 100 106 100 96 102 96 92 119 113 109 55 43 34 111 105 101 107 101 97 103 97 93 102 98 98 116 110 106 112 106 102 108 102 98 104 98 94 121 115 111 117 111 107 113 107 103 109 103 99 105 99 95 122 116 112 118 112 108 55 43 34 110 104 100 106 100 96 102 96 92 119 113 109 115 109 105 111 105 101 107 101 97 103 97 93 120 114 110 116 110 106 112 106 102 108 102 98 104 98 94 121 115 111 117 111 107 55 43 34 109 103 99 105 99 95 104 100 100 118 112 108 96 92 92 110 104 100 106 100 96 102 96 92 119 113 109 115 109 105 111 105 101 107 101 97 103 97 93 120 114 110 116 110 106
55 43 34 120 114 110 116 110 106 112 106 102 108 102 98 86 82 82 121 115 111 117 111 107 113 107 103 109 103 99 105 99 95 122 116 112 118 112 108 114 108 104 110 104 100 106 100 96 55 43 34 119 113 109 115 109 105 111 105 101 107 101 97 103 97 93 102 98 98 116 110 106 112 106 102 108 102 98 104 98 94 121 115 111 117 111 107 113 107 103 109 103 99 105 99 95 55 43 34 118 112 108 114 108 104 110 104 100 106 100 96 102 96 92 119 113 109 115 109 105 111 105 101 107 101 97 103 97 93 120 114 110 116 110 106 112 106 102 108 102 98 104 98 94 55 43 34 117 111 107 113 107 103 109 103 99 87 83 83 104 100 100 118 112 108 114 108 104 110 104 100 106 100 96 102 96 92 119 113 109 115 109 105 111 105 101 107 101 97 103 97 93
55 43 34 99 95 93 95 91 89 112 108 106 90 88 90 104 100 98 100 96 94 96 92 90 113 109 107 109 105 103 105 101 99 101 97 95 97 93 91 114 110 108 110 106 104 106 102 100 55 43 34 98 94 92 94 90 88 111 107 105 107 103 101 103 99 97 99 95 93 95 91 89 94 92 94 108 104 102 104 100 98 100 96 94 96 92 90 113 109 107 109 105 103 105 101 99 55 43 34 97 93 91 114 110 108 110 106 104 106 102 100 102 98 96 98 94 92 94 90 88 111 107 105 107 103 101 103 99 97 99 95 93 95 91 89 112 108 106 108 104 102 104 100 98 55 43 34 96 92 90 113 109 107 91 89 91 105 101 99 101 97 95 97 93 91 96 94 96 110 106 104 106 102 100 102 98 96 98 94 92 94 90 88 111 107 105 107 103 101 103 99 97
55 43 34 117 109 105 113 105 101 91 85 85 95 91 89 112 108 106 108 104 102 104 100 98 100 96 94 96 92 90 123 115 111 119 111 107 115 107 103 101 97 95 97 93 91 114 110 108 55 43 34 106 102 100 102 98 96 108 100 96 104 96 92 121 113 109 107 103 101 103 99 97 99 95 93 95 91 89 94 92 94 108 104 102 114 106 102 110 102 98 106 98 94 113 109 107 55 43 34 105 101 99 101 97 95 97 93 91 114 110 108 120 112 108 116 108 104 112 104 100 98 94 92 94 90 88 111 107 105 107 103 101 103 99 97 99 95 93 105 97 93 122 114 110 65 49 38 104 100 98 82 80 82 96 92 90 113 109 107 109 105 103 105 101 99 111 103 99 107 99 95 106 100 100 110 106 104 106 102 100 102 98 96 98 94 92 94 90 88 111 107 105
65 49 38 104 96 92 103 97 97 107 103 101 103 99 97 99 95 93 95 91 89 112 108 106 108 104 102 114 106 102 110 102 98 106 98 94 113 109 107 109 105 103 105 101 99 101 97 95 55 43 34 114 110 108 120 112 108 116 108 104 112 104 100 98 94 92 94 90 88 111 107 105 107 103 101 103 99 97 99 95 93 105 97 93 104 98 98 118 110 106 104 100 98 100 96 94 55 43 34 113 109 107 109 105 103 105 101 99 111 103 99 107 99 95 124 116 112 110 106 104 106 102 100 102 98 96 98 94 92 94 90 88 111 107 105 117 109 105 113 105 101 109 101 97 55 43 34 94 92 94 108 104 102 104 100 98 100 96 94 96 92 90 123 115 111 119 111 107 115 107 103 101 97 95 97 93 91 96 94 96 110 106 104 106 102 100 102 98 96 108 100 96
65 49 38 94 88 88 98 94 92 94 90 88 111 107 105 107 103 101 103 99 97 99 95 93 105 97 93 122 114 110 118 110 106 104 100 98 100 96 94 96 92 90 113 109 107 109 105 103 55 43 34 111 103 99 107 99 95 124 116 112 110 106 104 106 102 100 102 98 96 98 94 92 94 90 88 111 107 105 117 109 105 113 105 101 109 101 97 95 91 89 94 92 94 108 104 102 55 43 34 100 96 94 96 92 90 123 115 111 119 111 107 115 107 103 101 97 95 97 93 91 114 110 108 110 106 104 106 102 100 102 98 96 108 100 96 104 96 92 121 113 109 107 103 101 37 27 22 99 95 93 95 91 89 112 108 106 108 104 102 114 106 102 110 102 98 106 98 94 113 109 107 109 105 103 105 101 99 101 97 95 97 93 91 96 94 96 120 112 108 116 108 104
47 33 26 92 90 92 106 102 100 102 98 96 98 94 92 94 90 88 111 107 105 117 109 105 113 105 101 109 101 97 95 91 89 112 108 106 108 104 102 104 100 98 100 96 94 96 92 90 65 49 38 119 111 107 115 107 103 101 97 95 97 93 91 114 110 108 110 106 104 106 102 100 102 98 96 108 100 96 104 96 92 121 113 109 107 103 101 103 99 97 99 95 93 95 91 89 37 27 22 108 104 102 114 106 102 110 102 98 106 98 94 113 109 107 109 105 103 105 101 99 101 97 95 97 93 91 114 110 108 120 112 108 116 108 104 112 104 100 98 94 92 76 74 76 55 43 34 107 103 101 103 99 97 99 95 93 105 97 93 122 114 110 118 110 106 104 100 98 100 96 94 96 92 90 113 109 107 109 105 103 105 101 99 111 103 99 107 99 95 106 100 100
55 43 34 55 43 34 55 43 34 37 27 22 55 43 34 55 43 34 65 49 38 65 49 38 65 49 38 55 43 34 55 43 34 55 43 34 55 43 34 55 43 34 55 43 34 65 49 38 65 49 38 65 49 38 55 43 34 55 43 34 55 43 34 55 43 34 55 43 34 55 43 34 65 49 38 65 49 38 65 49 38 55 43 34 55 43 34 55 43 34 55 43 34 55 43 34 55 43 34 65 49 38 47 33 26 65 49 38 55 43 34 55 43 34 55 43 34 55 43 34 55 43 34 55 43 34 65 49 38 65 49 38 65 49 38 55 43 34 37 27 22 55 43 34 55 43 34 55 43 34 55 43 34 65 49 38 65 49 38 65 49 38 55 43 34 55 43 34 55 43 34 55 43 34 55 43 34 55 43 34 65 49 38 65 49 38 65 49 38 55 43 34
107 101 97 103 97 93 120 114 110 116 110 106 112 106 102 100 92 90 114 104 98 131 121 115 55 43 34 113 107 103 109 103 99 105 99 95 122 116 112 118 112 108 124 114 108 120 110 104 116 106 100 102 96 92 119 113 109 115 109 105 111 105 101 107 101 97 103 97 93 130 120 114 65 49 38 122 112 106 108 102 98 104 98 94 121 115 111 117 111 107 113 107 103 109 103 99 115 105 99 132 122 116 128 118 112 114 108 104 92 88 88 106 100 96 102 96 92 119 113 109 55 43 34 121 111 105 117 107 101 113 103 97 120 114 110 98 94 94 112 106 102 108 102 98 104 98 94 121 115 111 127 117 111 123 113 107 119 109 103 105 99 95 122 116 112 118 112 108 55 43 34 110 104 100 106 100 96 112 102 96 129 119 113 125 115 109 111 105 101 107 101 97
115 109 105 111 105 101 107 101 97 103 97 93 130 120 114 126 116 110 122 112 106 90 86 86 55 43 34 121 115 111 117 111 107 113 107 103 109 103 99 115 105 99 132 122 116 128 118 112 114 108 104 110 104 100 106 100 96 102 96 92 119 113 109 115 109 105 121 111 105 117 107 101 65 49 38 120 114 110 116 110 106 112 106 102 108 102 98 104 98 94 121 115 111 127 117 111 123 113 107 119 109 103 105 99 95 122 116 112 118 112 108 114 108 104 92 88 88 106 100 96 65 49 38 129 119 113 125 115 109 111 105 101 89 85 85 103 97 93 120 114 110 116 110 106 112 106 102 118 108 102 114 104 98 131 121 115 117 111 107 113 107 103 109 103 99 105 99 95 55 43 34 118 112 108 124 114 108 120 110 104 116 106 100 102 96 92 119 113 109 115 109 105
102 96 92 119 113 109 115 109 105 121 111 105 117 107 101 113 103 97 120 114 110 116 110 106 55 43 34 90 86 86 104 98 94 121 115 111 127 117 111 123 113 107 119 109 103 105 99 95 122 116 112 118 112 108 114 108 104 110 104 100 106 100 96 112 102 96 129 119 113 125 115 109 55 43 34 107 101 97 103 97 93 120 114 110 116 110 106 112 106 102 118 108 102 114 104 98 131 121 115 117 111 107 113 107 103 109 103 99 105 99 95 122 116 112 118 112 108 124 114 108 47 33 26 116 106 100 102 96 92 101 97 97 115 109 105 111 105 101 107 101 97 103 97 93 130 120 114 126 116 110 122 112 106 108 102 98 104 98 94 121 115 111 117 111 107 113 107 103 55 43 34 115 105 99 132 122 116 128 118 112 114 108 104 110 104 100 106 100 96 102 96 92
110 104 100 106 100 96 112 102 96 129 119 113 125 115 109 111 105 101 107 101 97 103 97 93 55 43 34 116 110 106 112 106 102 100 92 90 114 104 98 131 121 115 117 111 107 113 107 103 109 103 99 105 99 95 122 116 112 118 112 108 124 114 108 120 110 104 116 106 100 102 96 92 55 43 34 115 109 105 111 105 101 107 101 97 103 97 93 130 120 114 126 116 110 122 112 106 108 102 98 104 98 94 121 115 111 117 111 107 113 107 103 109 103 99 115 105 99 132 122 116 65 49 38 114 108 104 92 88 88 106 100 96 102 96 92 119 113 109 115 109 105 121 111 105 117 107 101 113 103 97 120 114 110 116 110 106 112 106 102 108 102 98 104 98 94 121 115 111 65 49 38 123 113 107 119 109 103 105 99 95 122 116 112 118 112 108 114 108 104 110 104 100
118 112 108 124 114 108 120 110 104 116 106 100 102 96 92 119 113 109 115 109 105 111 105 101 55 43 34 103 97 93 130 120 114 126 116 110 122 112 106 90 86 86 104 98 94 121 115 111 117 111 107 113 107 103 109 103 99 115 105 99 132 122 116 128 118 112 114 108 104 110 104 100 55 43 34 102 96 92 119 113 109 115 109 105 121 111 105 117 107 101 113 103 97 120 114 110 116 110 106 112 106 102 108 102 98 104 98 94 121 115 111 127 117 111 123 113 107 119 109 103 55 43 34 104 100 100 118 112 108 114 108 104 92 88 88 106 100 96 112 102 96 129 119 113 125 115 109 111 105 101 107 101 97 103 97 93 120 114 110 116 110 106 112 106 102 118 108 102 65 49 38 131 121 115 117 111 107 113 107 103 109 103 99 105 99 95 122 116 112 118 112 108
115 105 99 132 122 116 128 118 112 114 108 104 110 104 100 106 100 96 102 96 92 119 113 109 55 43 34 121 111 105 117 107 101 113 103 97 120 114 110 116 110 106 112 106 102 90 86 86 104 98 94 121 115 111 127 117 111 123 113 107 119 109 103 105 99 95 122 116 112 118 112 108 55 43 34 110 104 100 106 100 96 112 102 96 129 119 113 125 115 109 111 105 101 107 101 97 103 97 93 120 114 110 116 110 106 112 106 102 118 108 102 114 104 98 131 121 115 117 111 107 37 27 22 109 103 99 105 99 95 122 116 112 118 112 108 124 114 108 102 94 92 116 106 100 102 96 92 119 113 109 115 109 105 111 105 101 107 101 97 103 97 93 130 120 114 126 116 110 65 49 38 108 102 98 104 98 94 121 115 111 117 111 107 113 107 103 109 103 99 115 105 99
123 113 107 119 109 103 105 99 95 122 116 112 118 112 108 114 108 104 110 104 100 106 100 96 65 49 38 129 119 113 125 115 109 111 105 101 107 101 97 103 97 93 120 114 110 116 110 106 112 106 102 100 92 90 114 104 98 131 121 115 117 111 107 113 107 103 109 103 99 105 99 95 55 43 34 118 112 108 124 114 108 120 110 104 116 106 100 102 96 92 119 113 109 115 109 105 111 105 101 107 101 97 103 97 93 130 120 114 126 116 110 122 112 106 108 102 98 86 82 82 55 43 34 117 111 107 113 107 103 109 103 99 115 105 99 132 122 116 128 118 112 114 108 104 92 88 88 106 100 96 102 96 92 119 113 109 115 109 105 121 111 105 117 107 101 113 103 97 55 43 34 116 110 106 112 106 102 108 102 98 104 98 94 121 115 111 127 117 111 123 113 107
131 121 115 117 111 107 113 107 103 109 103 99 105 99 95 122 116 112 118 112 108 124 114 108 65 49 38 116 106 100 102 96 92 119 113 109 115 109 105 111 105 101 107 101 97 103 97 93 130 120 114 126 116 110 122 112 106 90 86 86 104 98 94 121 115 111 117 111 107 113 107 103 55 43 34 115 105 99 132 122 116 128 118 112 114 108 104 110 104 100 106 100 96 102 96 92 119 113 109 115 109 105 121 111 105 117 107 101 113 103 97 120 114 110 98 94 94 112 106 102 55 43 34 104 98 94 121 115 111 127 117 111 123 113 107 119 109 103 105 99 95 122 116 112 118 112 108 114 108 104 92 88 88 106 100 96 112 102 96 129 119 113 125 115 109 111 105 101 55 43 34 103 97 93 120 114 110 116 110 106 112 106 102 118 108 102 114 104 98 131 121 115
108 102 98 104 98 94 121 115 111 117 111 107 113 107 103 109 103 99 115 105 99 132 122 116 65 49 38 114 108 104 110 104 100 106 100 96 102 96 92 119 113 109 115 109 105 121 111 105 117 107 101 113 103 97 120 114 110 116 110 106 112 106 102 90 86 86 104 98 94 121 115 111 65 49 38 123 113 107 119 109 103 105 99 95 98 96 98 94 92 94 90 88 90 86 84 86 82 80 82 88 82 82 105 99 99 101 95 95 111 105 101 89 85 85 103 97 93 120 114 110 55 43 34 112 106 102 118 108 102 114 104 98 131 121 115 117 111 107 113 107 103 109 103 99 105 99 95 122 116 112 118 112 108 124 114 108 102 94 92 116 106 100 102 96 92 119 113 109 55 43 34 111 105 101 107 101 97 103 97 93 130 120 114 126 116 110 122 112 106 108 102 98
116 110 106 112 106 102 108 102 98 104 98 94 121 115 111 127 117 111 123 113 107 119 109 103 55 43 34 122 116 112 118 112 108 114 108 104 110 104 100 106 100 96 112 102 96 129 119 113 125 115 109 111 105 101 107 101 97 103 97 93 120 114 110 116 110 106 112 106 102 100 92 90 65 49 38 131 121 115 117 111 107 113 107 103 85 83 85 81 79 81 98 96 98 94 92 94 100 94 94 96 90 90 92 86 86 78 76 78 101 97 97 115 109 105 111 105 101 107 101 97 55 43 34 130 120 114 126 116 110 122 112 106 108 102 98 104 98 94 121 115 111 117 111 107 113 107 103 109 103 99 115 105 99 132 122 116 128 118 112 114 108 104 92 88 88 106 100 96 55 43 34 119 113 109 115 109 105 121 111 105 117 107 101 113 103 97 120 114 110 116 110 106
95 91 89 112 108 106 108 104 102 104 100 98 110 102 98 106 98 94 123 115 111 109 105 103 55 43 34 101 97 95 97 93 91 114 110 108 110 106 104 116 108 104 112 104 100 108 100 96 94 90 88 111 107 105 107 103 101 103 99 97 99 95 93 95 91 89 122 114 110 118 110 106 65 49 38 82 80 82 96 92 90 113 109 107 85 85 89 81 81 85 77 77 81 83 79 81 100 96 98 96 92 94 82 82 86 60 62 70 98 94 92 94 90 88 111 107 105 107 103 101 65 49 38 109 101 97 105 97 93 112 108 106 108 104 102 104 100 98 100 96 94 96 92 90 113 109 107 119 111 107 115 107 103 111 103 99 97 93 91 114 110 108 110 106 104 106 102 100 37 27 22 98 94 92 104 96 92 121 113 109 117 109 105 103 99 97 99 95 93 95 91 89
103 99 97 99 95 93 95 91 89 122 114 110 118 110 106 114 106 102 100 96 94 96 92 90 55 43 34 109 105 103 105 101 99 101 97 95 107 99 95 124 116 112 120 112 108 106 102 100 102 98 96 98 94 92 94 90 88 111 107 105 107 103 101 113 105 101 109 101 97 105 97 93 55 43 34 108 104 102 104 100 98 82 80 82 96 92 90 113 109 107 119 111 107 115 107 103 111 103 99 97 93 91 96 94 96 110 106 104 106 102 100 102 98 96 98 94 92 104 96 92 65 49 38 117 109 105 103 99 97 99 95 93 95 91 89 112 108 106 108 104 102 104 100 98 110 102 98 106 98 94 123 115 111 109 105 103 105 101 99 101 97 95 97 93 91 114 110 108 55 43 34 116 108 104 94 88 88 108 100 96 94 90 88 111 107 105 107 103 101 103 99 97
111 107 105 107 103 101 113 105 101 109 101 97 105 97 93 112 108 106 108 104 102 104 100 98 55 43 34 96 92 90 113 109 107 119 111 107 115 107 103 111 103 99 97 93 91 114 110 108 110 106 104 106 102 100 102 98 96 98 94 92 104 96 92 121 113 109 117 109 105 103 99 97 55 43 34 95 91 89 112 108 106 108 104 102 104 100 98 92 86 86 106 98 94 123 115 111 109 105 103 87 85 87 101 97 95 97 93 91 114 110 108 110 106 104 116 108 104 112 104 100 65 49 38 94 90 88 111 107 105 107 103 101 103 99 97 99 95 93 95 91 89 122 114 110 118 110 106 114 106 102 100 96 94 96 92 90 113 109 107 109 105 103 105 101 99 101 97 95 65 49 38 124 116 112 120 112 108 106 102 100 84 82 84 98 94 92 94 90 88 111 107 105
80 78 80 104 96 92 121 113 109 117 109 105 103 99 97 99 95 93 95 91 89 112 108 106 55 43 34 104 100 98 110 102 98 106 98 94 123 115 111 109 105 103 105 101 99 101 97 95 97 93 91 114 110 108 110 106 104 116 108 104 112 104 100 108 100 96 94 90 88 111 107 105 55 43 34 103 99 97 99 95 93 95 91 89 122 114 110 118 110 106 114 106 102 82 80 82 78 76 78 113 109 107 109 105 103 105 101 99 101 97 95 107 99 95 124 116 112 120 112 108 55 43 34 102 98 96 98 94 92 94 90 88 111 107 105 107 103 101 113 105 101 109 101 97 105 97 93 112 108 106 108 104 102 104 100 98 100 96 94 96 92 90 113 109 107 119 111 107 65 49 38 111 103 99 97 93 91 114 110 108 110 106 104 106 102 100 84 82 84 98 94 92
116 108 104 112 104 100 90 84 84 94 90 88 111 107 105 107 103 101 103 99 97 99 95 93 55 43 34 122 114 110 118 110 106 114 106 102 100 96 94 96 92 90 113 109 107 109 105 103 105 101 99 101 97 95 107 99 95 124 116 112 120 112 108 106 102 100 102 98 96 98 94 92 55 43 34 111 107 105 107 103 101 113 105 101 109 101 97 105 97 93 112 108 106 90 88 90 104 100 98 82 80 82 96 92 90 113 109 107 119 111 107 115 107 103 111 103 99 97 93 91 55 43 34 110 106 104 106 102 100 102 98 96 98 94 92 104 96 92 121 113 109 117 109 105 103 99 97 99 95 93 95 91 89 112 108 106 108 104 102 104 100 98 110 102 98 106 98 94 65 49 38 109 105 103 105 101 99 101 97 95 97 93 91 114 110 108 110 106 104 116 108 104
