P3
8 8
255
16 20 30 16 20 30 18 24 36 22 28 42 22 28 42 18 24 36 16 20 30 16 20 30
16 20 30 46 56 78 58 70 94 70 82 108 70 82 108 58 70 94 46 56 78 16 20 30
18 24 36 58 70 94 76 90 116 88 102 130 88 102 130 76 90 116 58 70 94 18 24 36
22 28 42 70 82 108 88 102 130 102 118 148 102 118 148 88 102 130 70 82 108 22 28 42
22 28 42 70 82 108 88 102 130 102 118 148 102 118 148 88 102 130 70 82 108 22 28 42
18 24 36 58 70 94 76 90 116 88 102 130 88 102 130 76 90 116 58 70 94 18 24 36
16 20 30 46 56 78 58 70 94 70 82 108 70 82 108 58 70 94 46 56 78 16 20 30
16 20 30 16 20 30 18 24 36 22 28 42 22 28 42 18 24 36 16 20 30 16 20 30
