P3
8 8
255
18 16 22 18 16 22 28 24 30 42 36 40 42 36 40 28 24 30 18 16 22 18 16 22
18 16 22 34 28 36 84 74 42 196 168 64 196 168 64 84 74 42 34 28 36 18 16 22
28 24 30 84 74 42 196 168 64 84 208 216 84 208 216 196 168 64 84 74 42 28 24 30
42 36 40 196 168 64 84 208 216 248 244 220 248 244 220 84 208 216 196 168 64 42 36 40
42 36 40 196 168 64 84 208 216 248 244 220 248 244 220 84 208 216 196 168 64 42 36 40
28 24 30 84 74 42 196 168 64 84 208 216 84 208 216 196 168 64 84 74 42 28 24 30
18 16 22 34 28 36 84 74 42 196 168 64 196 168 64 84 74 42 34 28 36 18 16 22
18 16 22 18 16 22 28 24 30 42 36 40 42 36 40 28 24 30 18 16 22 18 16 22
